!!!COM: Beethoven, Ludwig van
!!!CDT: 1770///-1827///
!!!ODT: 1825///
!!!OTL: String Quartet No. 15 in A Minor, Op. 132
!!!OPS: Op. 132
!!!OMV: Mvmt. 5
!!!OMD: Allegro appassionato
**kern	**dynam	**kern	**dynam	**kern	**dynam	**kern	**dynam
*staff4	*staff4	*staff3	*staff3	*staff2	*staff2	*staff1	*staff1
*Icello	*Icello	*Iviola	*Iviola	*Ivioln	*Ivioln	*Ivioln	*Ivioln
*clefF4	*clefF4	*clefC3	*clefC3	*clefG2	*clefG2	*clefG2	*clefG2
*k[]	*k[]	*k[]	*k[]	*k[]	*k[]	*k[]	*k[]
*a:	*a:	*a:	*a:	*a:	*a:	*a:	*a:
*M3/4	*M3/4	*M3/4	*M3/4	*M3/4	*M3/4	*M3/4	*M3/4
*MM184	*MM184	*MM184	*MM184	*MM184	*MM184	*MM184	*MM184
=1-	=1-	=1-	=1-	=1-	=1-	=1-	=1-
([2AA/	p	4r	.	8r	.	2.r	.
.	.	.	.	(8fn/	p	.	.
.	.	2E/ 2c/	>	2e/)	.	.	.
8AA/L]	<	.	.	.	.	.	.
8E/J)	.	.	.	.	.	.	.
=2	=2	=2	=2	=2	=2	=2	=2
([2BB/	.	4r	.	8r	>	2.r	.
.	.	.	.	(8f/	.	.	.
.	.	2E/ 2d/	>	2e/)	>	.	.
8BB/L]	<	.	.	.	.	.	.
8E/J)	.	.	.	.	.	.	.
=3	=3	=3	=3	=3	=3	=3	=3
([2AA/	.	4r	.	8r	.	(4.a/	.
.	.	.	.	(8f/	.	.	.
.	.	2E/ 2c/	>	2e/)	>	.	.
.	.	.	.	.	.	8e/L	.
8AA/L]	<	.	.	.	.	8cc/)	.
8E/J)	.	.	.	.	.	8a'/J	.
=4	=4	=4	=4	=4	=4	=4	=4
([2BB/	.	4r	.	8r	.	(2a/	.
.	.	.	.	(8f/	.	.	.
.	.	2E/ 2d/	.	2e/)	>	.	.
8BB/L]	<	.	.	.	.	4g#/)	.
8E/J)	.	.	.	.	.	.	.
=5	=5	=5	=5	=5	=5	=5	=5
([2AA/	<	4r	>	8r	.	(4.a/	.
.	.	.	.	(8f/	.	.	.
.	.	2E/ 2c/	<	2e/)	<	.	.
.	.	.	.	.	.	8b\L	<
8AA/L]	.	.	.	.	.	8cc\	.
8E/J)	.	.	.	.	.	8dd\J	.
=6	=6	=6	=6	=6	=6	=6	=6
([2GG#/	.	4r	.	8r	.	4ee'\)	.
.	.	.	.	(8f/	.	.	.
.	.	2E/ 2B/	.	2e/)	.	(4ee'\	.
8GG#/L]	.	.	.	.	.	4ee'\)	.
8E/J)	.	.	.	.	.	.	.
=7	=7	=7	=7	=7	=7	=7	=7
([2GGn/	.	4r	.	8r	.	2ee\	.
.	.	.	.	(8f/	.	.	.
.	.	2C/ 2B-/	.	2c/)	.	.	.
8GG/L]	.	.	.	.	.	(4ee\	.
8C/J)	.	.	.	.	.	.	.
=8	=8	=8	=8	=8	=8	=8	=8
([2FF/	>	4r	.	8r	.	4.gg\	>
.	.	.	.	(8g/	>	.	.
.	.	2C/ 2A/	>	2c/) 2f/	.	.	.
.	.	.	.	.	.	8ff\L)	.
8FF/L]	.	.	.	.	.	(8ee'\	.
8C/J)	.	.	.	.	.	8dd'\J)	.
=9	=9	=9	=9	=9	=9	=9	=9
([2GG/	p	4r	.	8r	.	(2cc\	p
.	.	.	.	(8a/	p	.	.
.	.	2E/ 2c/	p	2G/) 2g/	.	.	.
8GG/L]	.	.	.	.	.	8ee\L	.
&(8G/J&))	.	.	.	.	.	8dd\J)	.
=10	=10	=10	=10	=10	=10	=10	=10
([2GG/	.	4r	.	8r	.	4dd\	.
.	.	.	.	(8a/	.	.	.
.	.	(4.D/ 4.Bn/	<	4g/	<	4r	.
8GG/L]	<	.	.	8f/L	>	4r	.
8AA/J)	.	&(8C/&)) 8c/	>	8e/J)	.	.	.
=11	=11	=11	=11	=11	=11	=11	=11
([2AA/	p	8r	.	8c/ 8e/	p	(4.aa\	p
.	.	8C/ 8c/	p	(8ff\	.	.	.
.	.	(8a\L	.	2cc\) 2ee\	.	.	.
.	.	8e\	.	.	.	8ee\L	.
8AA/L]	.	8cc\)	.	.	.	8ccc\	.
8E/J)	.	8a'\J	.	.	.	8aa\J)	.
=12	=12	=12	=12	=12	=12	=12	=12
([2BB/	<	(2a\	<	8r	<	(2aa\	<
.	.	.	.	(8ff\	.	.	.
.	.	.	.	2dd\) 2ee\	.	.	.
8BB/L]	.	4g#\)	.	.	.	4gg#\)	.
8E/J)	.	.	.	.	.	.	.
=13	=13	=13	=13	=13	=13	=13	=13
([2AA/	.	(4.a\	.	8r	.	(4.aa\	.
.	.	.	.	(8ff\	.	.	.
.	.	.	.	2cc\) 2ee\	.	.	.
.	.	8b\L	.	.	.	8bb\L	.
8AA/L]	.	8cc\	.	.	.	8ccc\	.
8E/J)	.	8dd\J	.	.	.	8ddd\J	.
=14	=14	=14	=14	=14	=14	=14	=14
([2GG#/	.	4ee'\)	.	8r	.	4eee'\)	.
.	.	.	.	(8cc\	.	.	.
.	.	(4ee'\	.	2b\)	.	(4eee'\	.
8GG#/L]	.	4ee'\)	.	.	.	4eee'\)	.
8E/J)	.	.	.	.	.	.	.
=15	=15	=15	=15	=15	=15	=15	=15
([2GGn/	.	4ee\	.	8r	.	2eee\	.
.	.	.	.	(8cc\	.	.	.
.	.	2C/ 2c/	.	2b-\)	.	.	.
8GG/L]	.	.	.	.	.	(4eee\	.
8C/J)	.	.	.	.	.	.	.
=16	=16	=16	=16	=16	=16	=16	=16
([2FF/	.	4r	.	8r	.	4.ggg\	>
.	.	.	.	(8b-/	>	.	.
.	.	2C/ 2c/	>	2a/) 2cc/	.	.	.
.	.	.	.	.	.	8fff\L)	.
8FF/L]	>	.	.	.	.	(8eee'\	.
8C/J)	.	.	.	.	.	8ddd'\J)	.
=17	=17	=17	=17	=17	=17	=17	=17
([2GG/	p	4r	.	8r	.	(2ccc\	p
.	.	.	.	(8a/	p	.	.
.	.	2E/ 2c/	p	2g/)	.	.	.
8GG/L]	.	.	.	.	.	8eee\L	.
8G/J)	.	.	.	.	.	8ddd\J)	.
=18	=18	=18	=18	=18	=18	=18	=18
([2GG/	.	4r	.	8r	.	4ddd\	.
.	.	.	.	(8a/	<	.	.
*	*	*^	*	*	*	*	*
.	.	(4.B/	2D\	<	[4g/	.	4r	.
8GG/L]	<	.	.	.	8g/L]	>	4r	.
8D/J)	.	8d/)	.	>	8f/J)	.	.	.
*	*	*v	*v	*	*	*	*	*
=19	=19	=19	=19	=19	=19	=19	=19
([2DD/	.	4r	.	8r	.	4r	.
.	.	.	.	(8g/	.	.	.
.	.	2F/ 2A/	.	2f/)	.	(4dd\	.
8DD/L]	.	.	.	.	.	4ff\)	.
8D/J)	.	.	.	.	.	.	.
=20	=20	=20	=20	=20	=20	=20	=20
(2C#/	<	4r	.	8r	.	2.aa\	<
.	.	.	.	(8ff\	<	.	.
.	.	2E/ 2A/	.	2ee\)	.	.	.
8C#/L	.	.	.	.	.	.	.
8Cn/J)	.	.	.	.	.	.	.
=21	=21	=21	=21	=21	=21	=21	=21
([2EE/	.	4r	<	8r	.	4r	.
.	.	.	.	(8a/	.	.	.
.	.	2E/ 2B/	.	2g/)	.	(4ee\	.
8EE/L]	.	.	.	.	.	4gg\)	.
8E/J)	.	.	.	.	.	.	.
=22	=22	=22	=22	=22	=22	=22	=22
([2D#/	.	4r	.	8r	.	2.bb\	.
.	.	.	.	(8cc\	.	.	.
.	.	([4F#/	.	([4b\)	.	.	.
8D#/L]	.	8F#/L]	.	8b\L]	.	.	.
8Dn/J)	.	8G#/J)	.	&(8ff\J&))	.	.	.
=23	=23	=23	=23	=23	=23	=23	=23
([2C/	.	4A/	.	8r	.	4r	.
.	.	.	.	(8ff\	.	.	.
.	.	2E/ 2c/	.	2ee\)	.	(4aa\	.
8C/L]	.	.	.	.	.	4ccc\)	.
8AA/J)	.	.	.	.	.	.	.
=24	=24	=24	=24	=24	=24	=24	=24
([2GG#/	f	4r	.	8r	.	2eee\	.
.	.	.	.	(8ff\	f	.	.
.	.	([4B/ [4d/	.	2ee\)	.	.	.
8GG#/L]	.	8B/L] 8d/]	.	.	.	4eee\	.
8AA/J)	.	8c/J)	.	.	.	.	.
=25	=25	=25	=25	=25	=25	=25	=25
([2EE/	.	4r	.	8r	.	(4.eee\	>
.	.	.	.	(8a/	>	.	.
.	.	2E/ 2B/	>	2g#/)	.	.	.
.	.	.	.	.	.	8bb\L	.
8EE/L]	>	.	.	.	.	8ddd\	.
&(8E/J&))	.	.	.	.	.	8ccc\J)	.
=26	=26	=26	=26	=26	=26	=26	=26
([2AA/	p	4r	.	8r	.	4aa\	p
.	.	.	.	(8b/L	p	.	.
*	*	*^	*	*	*	*	*
.	.	(8c/	4.E\	p	8a/	.	4r	.
.	.	4c#/	.	<	8e/	<	.	.
8AA/]	<	.	.	.	8gn/	>	4r	.
8D/)	.	8d/)	8D\	>	8f/J)	.	.	.
*	*	*v	*v	*	*	*	*	*
=27	=27	=27	=27	=27	=27	=27	=27
([2D\	.	4r	.	8f/L	.	4r	.
.	.	.	.	(8ee/J	.	.	.
.	.	(4d\	.	2f/) 2dd/	.	(4dd\	.
8D\L]	.	4f\)	.	.	.	4ff\)	.
8A\J)	.	.	.	.	.	.	.
=28	=28	=28	=28	=28	=28	=28	=28
([2C#/	.	2.a\	.	8r	.	2.aa\	.
.	.	.	.	(8f/	<	.	.
.	.	.	.	2e/)	.	.	.
8C#/L]	<	.	.	.	.	.	.
8Cn/J)	.	.	.	.	.	.	.
=29	=29	=29	=29	=29	=29	=29	=29
([2E\	.	4r	<	8r	.	4r	<
.	.	.	.	(8a/	.	.	.
.	.	(4e\	.	2B/) 2g/	.	(4ee\	.
8E\L]	.	4g\)	.	.	.	4gg\)	.
8B\J)	.	.	.	.	.	.	.
=30	=30	=30	=30	=30	=30	=30	=30
([2D#\	.	(2b\	.	8r	.	2.bb\	.
.	.	.	.	(8g/	.	.	.
.	.	.	.	4f#/	.	.	.
8D#\L]	.	8f#\L	.	8ff#\L	.	.	.
8Dn\J)	.	8g#\J	.	8ffn\J	.	.	.
=31	=31	=31	=31	=31	=31	=31	=31
([2C/	.	4a'\)	.	8ee\L)	.	4r	.
.	.	.	.	(8ff\J	.	.	.
.	.	(4a\	.	2ee\)	.	(4aa\	.
8C/L]	.	4cc\)	.	.	.	4ccc\)	.
8AA/J)	.	.	.	.	.	.	.
=32	=32	=32	=32	=32	=32	=32	=32
([2GG#/	.	2ee\	.	8r	.	2eee\	.
.	.	.	.	8f/	f	.	.
*	*	*	*	*^	*	*	*
.	.	.	.	2e/	(4B\	.	.	.
8GG#/L]	f	4ee\	f	.	4c\)	.	4eee\	f
8AA/J)	.	.	.	.	.	.	.	.
*	*	*	*	*v	*v	*	*	*
=33	=33	=33	=33	=33	=33	=33	=33
([2EE/	>	(4.ee\	>	8r	.	(4.eee\	.
.	.	.	.	(8a/	>	.	.
.	.	.	.	2B/) 2g#/	.	.	.
.	.	8b\L	.	.	.	8bb\L	>
8EE/L]	.	8dd\	.	.	.	8ddd\	.
8E/J)	.	8cc\J)	.	.	.	8ccc\J)	.
=34	=34	=34	=34	=34	=34	=34	=34
4AA/	p	8a\	p	8c/	p	4aa'\	p
.	.	(8D#/L	f	(8d#/L	.	.	.
4r	.	8E/J)	.	8e/J)	f	4r	.
.	.	(8D#/L	.	(8d#/L	.	.	.
4r	.	8E/J)	.	8e/J)	.	4r	.
.	.	8E/	.	8e/	.	.	.
=35	=35	=35	=35	=35	=35	=35	=35
([2AA/	>	[2.E/	>	[2.e/	>	(4.fff\	>
.	.	.	.	.	.	8ccc\L	.
8AA/L]	.	.	.	.	.	8eee\	.
8E/J)	.	.	.	.	.	8ddd\J)	.
=36	=36	=36	=36	=36	=36	=36	=36
4GG#/	p	8E/]	p	8e/]	p	4bb'\	p
.	.	(8D/L	f	(8d/L	f	.	.
4r	.	8E/J)	.	8e/J)	.	4r	.
.	.	(8D/L	.	(8d/L	.	.	.
4r	.	8E/J)	.	8e/J)	.	4r	.
.	.	8E/	.	8e/	.	.	.
=37	=37	=37	=37	=37	=37	=37	=37
([2GG#/	>	[2.E/	>	[2.e/	>	(4.eee\	>
.	.	.	.	.	.	8bb\L	.
8GG#/L]	.	.	.	.	.	8ddd\	.
8E/J)	.	.	.	.	.	8ccc\J)	.
=38	=38	=38	=38	=38	=38	=38	=38
4AA/	f	8E/]	p	8e/]	p	4aa'\	p
.	.	(8D#/L	.	(8d#/L	f	.	.
4r	.	8E/J)	f	8e/J)	.	4r	.
.	.	(8D#/L	.	(8d#/L	.	.	.
4r	.	8E/J)	.	8e/J)	.	4r	.
.	.	8E/	.	8e/	.	.	.
=39	=39	=39	=39	=39	=39	=39	=39
([2AA/	f	2.E/	f	2.e/	f	(4.fff\	f
.	.	.	.	.	.	8ccc\L	.
8AA/L]	.	.	.	.	.	8eee\	.
8E/J)	.	.	.	.	.	8ddd\J)	.
=40	=40	=40	=40	=40	=40	=40	=40
8GG#/	f	8E/ 8B/	f	8e/	f	8bb\	f
8r	.	8r	.	8r	.	8r	.
8G#\	.	8b\	.	8ee\	.	8bb\	.
8r	.	8r	.	8r	.	8r	.
8A\	.	8e\	.	8cc\ 8ee\	.	8ccc\	.
8r	.	8r	.	8r	.	8r	.
=41	=41	=41	=41	=41	=41	=41	=41
8D\	.	8a\	.	8ff\	.	8ddd\	.
8r	.	8r	.	8r	.	8r	.
8E\	.	8e\	.	8a/	.	8ccc\	.
8r	.	8r	.	8r	.	8r	.
8E\	.	8E/	.	8g#/	.	8bb\	.
8r	.	8r	.	8r	.	8r	.
=42	=42	=42	=42	=42	=42	=42	=42
4AA/	.	8A/	.	8cc\ 8ee\	.	8aa\	.
.	.	(8a\L	f	(8ff\L	f	(8ddd#\L	f
4r	.	8g#\J)	.	8ee\J)	.	8eee\J)	.
.	.	(8a\L	.	(8ff\L	.	(8ddd#\L	.
4r	.	8g#\J)	.	8ee\J)	.	8eee\J)	.
.	.	8c\ 8a\	.	8ee\	.	8eee\	.
=43	=43	=43	=43	=43	=43	=43	=43
(4.F\	>	2.c\ 2.a\	>	[2.ee\	>	[2.eee\	>
8C\L	.	.	.	.	.	.	.
8E\	.	.	.	.	.	.	.
8D\J)	.	.	.	.	.	.	.
=44	=44	=44	=44	=44	=44	=44	=44
4BB/	p	8g#\ 8b\	p	8ee\]	p	8eee\]	p
.	.	(8a\L	f	(8ff\L	f	(8ddd#\L	f
4r	.	8g#\J)	.	8ee\J)	.	8eee\J)	.
.	.	(8a\L	.	(8ff\L	.	(8ddd#\L	.
4r	.	8g#\J)	.	8ee\J)	.	8eee\J)	.
.	.	8g#\	.	8b\	.	8eee\	.
=45	=45	=45	=45	=45	=45	=45	=45
(4.E/	>	2.g#\	>	[2.ee\	>	[2.eee\	>
8BB/L	.	.	.	.	.	.	.
8D/	.	.	.	.	.	.	.
8C/J)	.	.	.	.	.	.	.
=46	=46	=46	=46	=46	=46	=46	=46
8AA/	p	8cc\	p	8ee\]	p	8eee\]	p
(8A\L	f	(8f\L	f	(8c/L	f	(8ddd#\L	f
8G#\J)	.	8e\J)	.	8B/J)	.	8eee\J)	.
(8A\L	.	(8f\L	.	(8c/L	.	(8ddd#\L	.
8G#\J)	.	8e\J)	.	8B/J)	.	8eee\J)	.
8A\	.	8f\	.	8c/	.	8eee\	.
=47	=47	=47	=47	=47	=47	=47	=47
([2G#\	.	8e\	.	8B/	.	(4.eee\	.
.	.	(8f\L	.	(8ff\L	.	.	.
.	.	8e\J)	.	8ee\J)	.	.	.
.	.	(8f\L	.	(8ff\L	.	8bb\L	.
8G#\L]	.	8e\J	.	8ee\J	.	8ddd\	.
8A\J)	.	8e\)	.	8ee\)	.	8ccc\J)	.
=48	=48	=48	=48	=48	=48	=48	=48
8A\	.	8c\ 8e\	.	8ee\	.	8aa\	.
8r	.	8r	.	8r	.	8r	.
8D\	.	8c\ 8d\	.	4ff#\	.	8aa\	.
8r	.	8r	.	.	.	8r	.
8Gn\	.	8B\ 8d\	.	8r	.	8bb\	.
8r	.	8r	.	8r	.	8r	.
=49	=49	=49	=49	=49	=49	=49	=49
8C/	.	8Gn/ 8e/	.	8gg\	.	8ccc\	.
8r	.	8r	.	8r	.	8r	.
8D\	.	8G/ 8d/	.	8gg\	.	8bb\	.
8r	.	8r	.	8r	.	8r	.
8D\	.	8d\ 8dd\	.	8a\ 8ff#\	.	8aa\	.
8r	.	8r	.	8r	.	8r	.
=50	=50	=50	=50	=50	=50	=50	=50
8G\	.	8d\ 8dd\	.	8b\ 8gg\	.	8ggn\	.
8r	.	8r	.	8r	.	8r	.
4r	.	8G/	p	8B/	p	4r	.
.	.	8r	.	8r	.	.	.
4r	.	8A/	.	8c/	.	4r	.
.	.	8r	.	8r	.	.	.
=51	=51	=51	=51	=51	=51	=51	=51
*clefC4	*clefC4	*	*	*	*	*	*
4r	.	8B/	.	8d/	.	4r	.
.	.	8r	.	8r	.	.	.
8g\	p	8A/	.	8c/	.	8bb\	p
8r	.	8r	.	8r	.	8r	.
8a\	.	8G/	.	8B/	.	8ccc\	.
8r	.	8r	.	8r	.	8r	.
=52	=52	=52	=52	=52	=52	=52	=52
8b\	.	8G/	.	8B/L	.	(2ddd\	.
8r	.	8r	.	(8dd\	.	.	.
4r	.	4r	.	8ee\	.	.	.
.	.	.	.	8cc#\J	.	.	.
4r	.	(8B\L	.	8dd\)	.	4gg\	.
.	.	8b\J)	.	8r	.	.	.
=53	=53	=53	=53	=53	=53	=53	=53
2.r	.	(8b\L	.	8r	.	4ff#\)	.
.	.	8a\J)	.	(8ccn\L	.	.	.
.	.	4r	.	8dd\	.	4r	.
.	.	.	.	8b\J	.	.	.
.	.	(8A\L	.	8cc\)	.	4ff#\	.
.	.	8a\J)	.	8r	.	.	.
=54	=54	=54	=54	=54	=54	=54	=54
2.r	.	(8a\L	.	8r	.	(2bb\	.
.	.	8g\J)	.	(8b/L	.	.	.
.	.	4r	.	8cc/	.	.	.
.	.	.	.	8a/J	.	.	.
.	.	(8G\L	.	4b/)	.	4ee\	.
.	.	8g\J)	.	.	.	.	.
=55	=55	=55	=55	=55	=55	=55	=55
2.r	.	(8g\L	.	8r	.	4dd\)	.
.	.	8f#\J)	.	(8a/L	.	.	.
.	.	4r	.	8b/	.	4r	.
.	.	.	.	8g#/J)	.	.	.
.	.	(8f#\L	.	(8a/L	.	(4dd\	.
.	.	8fn\J	.	8b/J	.	.	.
=56	=56	=56	=56	=56	=56	=56	=56
2.r	.	4e\)	.	8cc/L	.	4gg'\)	.
.	.	.	.	8g/	.	.	.
.	.	(4E/	.	8a/	.	(4cc\	.
.	.	.	.	8f#/	.	.	.
.	.	8D/L	.	8g/	.	4b'\)	.
.	.	8d/J)	.	8fn/J)	.	.	.
=57	=57	=57	=57	=57	=57	=57	=57
4r	.	(8C/L	.	(8e/L	.	(4a/	.
.	.	8c/J	.	8f#/	.	.	.
4r	.	8B/L	.	8d/	.	4g'/)	.
.	.	8c/	.	8e/	.	.	.
*clefF4	*clefF4	*	*	*	*	*	*
(4GG/	.	8A/	.	8f#/	.	(4b\	.
.	.	[8G/J)	.	[8g/J)	.	.	.
=58	=58	=58	=58	=58	=58	=58	=58
2.C/	<	(8G/L]	<	(8g/L]	.	2a/	<
.	.	8F#/	.	8f#/	<	.	.
.	.	8G/	.	8g/	.	.	.
.	.	8E/	.	8e/	.	.	.
.	.	8F#/	.	8f#/	.	4ee\	.
.	.	8G/J)	.	8g/J)	.	.	.
=59	=59	=59	=59	=59	=59	=59	=59
2BB/)	p	2B/	p	2b\	p	2dd#\)	p
*clefC4	*clefC4	*	*	*	*	*	*
(4B\	<	4E/ 4G/	.	(4b\	.	(4gg'\	.
=60	=60	=60	=60	=60	=60	=60	=60
2A\	.	2C/ 2c/	<	2a/	<	2gg'\	<
4e\	.	4C/ 4c/	.	4ee\	.	4gg'\)	.
=61	=61	=61	=61	=61	=61	=61	=61
2d#\)	>	2B/	>	2dd#\)	>	2gg\	>
[4e\	<	([4C/ 4e/	<	[4ee\	<	(8gg\L	<
.	.	.	.	.	.	8bb\J	.
=62	=62	=62	=62	=62	=62	=62	=62
2e\]	.	2C/]) 2c/	.	2ee\]	.	2bb\	.
(4e\	.	[4C/ [4g/	.	(4ee\	.	4eee\	.
=63	=63	=63	=63	=63	=63	=63	=63
2fn\)	.	2C/] 2g/]	.	2ffn\)	.	2ddd#\)	.
(8e\L	ff	[4C/ [4c/	f	[4g\ [4ee\	f	[4eee\	f
8g\J	.	.	.	.	.	.	.
=64	=64	=64	=64	=64	=64	=64	=64
8f#\L	.	4.C/] 4.c/]	.	4.g\] 4.ee\]	.	4.eee\]	.
8g\	.	.	.	.	.	.	.
8e\J)	.	.	.	.	.	.	.
8r	.	8r	.	8r	.	8r	.
(8e\L	.	[4B\ [4e\	.	[4ee\ [4gg\	.	[4eee\	.
8g\J	ff	.	.	.	.	.	.
=65	=65	=65	=65	=65	=65	=65	=65
8f#\L	.	4.B\] 4.e\]	.	4.ee\] 4.gg\]	.	4.eee\]	.
8g\	.	.	.	.	.	.	.
8e\J)	.	.	.	.	.	.	.
8r	.	8r	.	8r	.	8r	.
(8e\L	.	[4A\ [4e\	.	[4cc\ [4aa\	.	[4eee\	.
8g\J	.	.	.	.	.	.	.
=66	=66	=66	=66	=66	=66	=66	=66
8f#\L	.	4.A\] 4.e\]	.	4.cc\] 4.aa\]	.	4.eee\]	.
8g\	.	.	.	.	.	.	.
8e\J)	.	.	.	.	.	.	.
8r	.	8r	.	8r	.	8r	.
(8e\L	.	[4G/ [4e/	.	[4b\ [4bb\	.	[4eee\	.
8g\J	.	.	.	.	.	.	.
=67	=67	=67	=67	=67	=67	=67	=67
8f#\L	.	4.G/] 4.e/]	.	4.b\] 4.bb\]	.	4.eee\]	.
8g\	.	.	.	.	.	.	.
8e\J)	.	.	.	.	.	.	.
8r	.	8r	.	8r	.	8r	.
4r	.	4r	.	4r	.	(4ddd#\	p
=68	=68	=68	=68	=68	=68	=68	=68
*clefF4	*clefF4	*	*	*	*	*	*
8r	.	2.r	.	2.r	.	2.eee\	.
(8GG/L	p	.	.	.	.	.	.
8BB/	.	.	.	.	.	.	.
8E/	.	.	.	.	.	.	.
8F#/	.	.	.	.	.	.	.
8G/J	.	.	.	.	.	.	.
=69	=69	=69	=69	=69	=69	=69	=69
8G#\L	.	(8B\L	p	2.r	.	4ccc\	.
8A\J)	.	8c\	.	.	.	.	.
4r	.	8e\	.	.	.	4aa\)	.
.	.	8fn\	.	.	.	.	.
4r	.	8g#\	.	.	.	4ffn'\	.
.	.	8a\J	.	.	.	.	.
=70	=70	=70	=70	=70	=70	=70	=70
(8A#\L	.	8f#\L	.	4r	.	(2.ee\	.
8B\J)	.	8gn\J)	.	.	.	.	.
4r	.	4r	.	(8a#\L	p	.	.
.	.	.	.	8b\	.	.	.
4r	.	(8g\L	.	8ee\	.	.	.
.	.	8b\J	.	8gg\J	.	.	.
=71	=71	=71	=71	=71	=71	=71	=71
4r	.	8f#\L	.	8aan\L	.	4dd#\	.
.	.	8a\	.	8ccc\	.	.	.
4r	.	8g\	.	8bb\	.	4bb\)	.
.	.	8f#\J)	.	8aa\J)	.	.	.
*clefC4	*clefC4	*	*	*	*	*	*
(8e\L	ff	[4C/ [4c/	ff	[4ee\ [4gg\	ff	[4eee\	ff
8g\J	.	.	.	.	.	.	.
=72	=72	=72	=72	=72	=72	=72	=72
8f#\L	.	4.C/] 4.c/]	.	4.ee\] 4.gg\]	.	4.eee\]	.
8g\	.	.	.	.	.	.	.
8e\J)	.	.	.	.	.	.	.
8r	.	8r	.	8r	.	8r	.
(8e\L	.	[4B/	.	[4g\ [4ee\	.	[4ggg\	.
8g\J	ff	.	.	.	.	.	.
=73	=73	=73	=73	=73	=73	=73	=73
8f#\L	.	4.B/]	.	4.g\] 4.ee\]	.	4.ggg\]	.
8g\	.	.	.	.	.	.	.
8e\J)	.	.	.	.	.	.	.
8r	.	8r	.	8r	.	8r	.
(8e\L	.	[4A\ [4e\	.	[4cc\ [4ee\	.	[4aaa\	.
8g\J	.	.	.	.	.	.	.
=74	=74	=74	=74	=74	=74	=74	=74
8f#\L	.	4.A\] 4.e\]	.	4.cc\] 4.ee\]	.	4.aaa\]	.
8g\)	.	.	.	.	.	.	.
8e\J	.	.	.	.	.	.	.
8r	.	8r	.	8r	.	8r	.
(8e\L	.	[4G\ [4g\	.	[4b\ [4ee\	.	[4bbb\	.
8g\J	.	.	.	.	.	.	.
=75	=75	=75	=75	=75	=75	=75	=75
8f#\L	.	4.G\] 4.g\]	.	4.b\] 4.ee\]	.	4.bbb\]	.
8g\J	.	.	.	.	.	.	.
4e\)	.	.	.	.	.	.	.
.	.	8r	.	8r	.	8r	.
*clefF4	*clefF4	*	*	*	*	*	*
([4CC/	p	4r	.	4r	.	(4ee\	p
=76	=76	=76	=76	=76	=76	=76	=76
8CC/L]	.	2.r	.	2.r	.	2.eee\)	.
8EE/	.	.	.	.	.	.	.
8GG/	.	.	.	.	.	.	.
8BB/	.	.	.	.	.	.	.
8C/	.	.	.	.	.	.	.
8E/J)	.	.	.	.	.	.	.
=77	=77	=77	=77	=77	=77	=77	=77
(8E\L	.	(8G#/L	p	2.r	.	(4ccc\	.
8Fn\	.	8A/	.	.	.	.	.
8G#\	.	8B/	.	.	.	4aa\)	.
8A\J)	.	8c/	.	.	.	.	.
4r	.	8e/	.	.	.	4ffn'\	.
.	.	8fn/J)	.	.	.	.	.
=78	=78	=78	=78	=78	=78	=78	=78
2.r	.	2.f\	.	2.ff\	p	(8cc#\L	.
.	.	.	.	.	.	8dd\	.
.	.	.	.	.	.	8ee\	.
.	.	.	.	.	.	8ff\	.
.	.	.	.	.	.	8gg#\	.
.	.	.	.	.	.	8aa\J	.
=79	=79	=79	=79	=79	=79	=79	=79
4r	.	(4d\	.	(4dd\	.	8bb\L	.
.	.	.	.	.	.	8ccc\	.
4r	.	4B/)	.	4b\)	.	8ddd\	.
.	.	.	.	.	.	8eee\	.
(8BB/L	.	4Gn'/	.	(8g/L	.	8fff\	.
8AA/J	.	.	.	8c/J	.	8fff#\J)	.
=80	=80	=80	=80	=80	=80	=80	=80
8FF/L	.	2.G/	.	8A#/L	<	2.ggg\	.
8GG/	<	.	.	8B/	.	.	.
8AA#/	.	.	.	8c#/	.	.	.
8BB/	.	.	.	8d/	.	.	.
8C#/	.	.	.	8e/	.	.	.
8D/J)	.	.	.	8f/J)	.	.	.
=81	=81	=81	=81	=81	=81	=81	=81
(8BB/L	.	(8D/L	<	4G'/	.	(4eee\	<
8Cn/	.	8E/	.	.	.	.	.
8D/	.	8F/	.	4g'/	.	4ccc\)	.
8C/	.	8E/	.	.	.	.	.
8D/	.	8F/	.	4g'/	.	4bb'\	.
8E/J)	.	8G/J)	.	.	.	.	.
=82	=82	=82	=82	=82	=82	=82	=82
[2.Fn\	.	[2.A/	.	(8cn/L	.	(4aa\	.
.	.	.	.	8an/	>	.	.
.	.	.	.	8b/	.	4ffn\	>
.	.	.	.	8a/	.	.	.
.	.	.	.	8b/	.	4ee\	.
.	.	.	.	8cc/J	.	.	.
=83	=83	=83	=83	=83	=83	=83	=83
(4F\]	>	(4A/]	>	4a/	.	4dd#\	.
[2E\)	p	4B/)	.	4g#/	.	4ee\	.
.	.	4B/	p	4d/)	p	4g#/	p
=84	=84	=84	=84	=84	=84	=84	=84
4E\]	.	4A/	.	4c/	.	4a/	.
[2E\	p	[2A/	p	[2c/	p	4ff\	p
.	.	.	.	.	.	4ee\	.
=85	=85	=85	=85	=85	=85	=85	=85
4E\]	.	(4A/]	.	(4c/]	.	4dd#\	.
(4E\	.	4G#/	.	4B/	.	4ee\	.
4D\	pp	4B/	pp	[4e/	pp	4g#/	pp
=86	=86	=86	=86	=86	=86	=86	=86
4C#/	.	4B-/	.	4e/]	.	4gn/	.
4D/	.	4A/	.	4d/	.	4f#/	.
4Cn/	.	[4A-/	.	4fn/	.	4ddn\	.
=87	=87	=87	=87	=87	=87	=87	=87
4BB/	.	4A-/]	.	4d/	.	4fn/	.
4C/	.	[2Gn/	.	4c/	.	4e/	.
4BB/	.	.	.	4e/	.	4cc\	.
=88	=88	=88	=88	=88	=88	=88	=88
4AA/	.	4G/]	.	4c/	.	4e/	.
4BB/	.	2F/)	.	4B/	.	4d/	.
4AA/	.	.	.	[4d/	.	[4b/	.
=89	=89	=89	=89	=89	=89	=89	=89
4GG#/	.	(2E/	.	4d/]	.	4b/]	.
4AA/	.	.	.	4c/	.	4a/	.
4EE/)	.	4Bn/)	.	4d/)	.	4g#/)	.
=90	=90	=90	=90	=90	=90	=90	=90
([2AA/	<	4r	.	8r	.	2.r	.
.	.	.	.	(8f/	p	.	.
.	.	2E/ 2c/	p	2e/)	.	.	.
8AA/L]	.	.	.	.	.	.	.
8E/J)	.	.	.	.	.	.	.
=91	=91	=91	=91	=91	=91	=91	=91
[2BB/	<	4r	<	8r	<	2.r	.
.	.	.	.	(8f/	.	.	.
.	.	2E/ 2d/	.	2e/)	.	.	.
8BB/L]	.	.	.	.	.	.	.
8E/J	.	.	.	.	.	.	.
=92	=92	=92	=92	=92	=92	=92	=92
([2AA/	<	4r	<	8r	<	(4.a/	.
.	.	.	.	(8f/	.	.	.
.	.	2E/ 2c/	.	2e/)	<	.	.
.	.	.	.	.	.	8e/L	.
8AA/L]	.	.	.	.	.	8cc/)	.
8E/J)	.	.	.	.	.	8a'/J	.
=93	=93	=93	=93	=93	=93	=93	=93
([2BB/	<	4r	<	8r	.	(2a/	.
.	.	.	.	(8f/	.	.	.
.	.	2E/ 2d/	<	2e/)	<	.	.
8BB/L]	.	.	.	.	.	4g#/)	.
8E/J)	.	.	.	.	.	.	.
=94	=94	=94	=94	=94	=94	=94	=94
([2AA/	.	4r	.	8r	.	(4.a/	.
.	.	.	.	(8f/	<	.	.
.	.	2E/ 2c/	<	2e/)	.	.	.
.	.	.	.	.	.	8b\L	<
8AA/L]	<	.	.	.	.	8cc\	.
8E/J)	.	.	.	.	.	8dd\J	.
=95	=95	=95	=95	=95	=95	=95	=95
[2GG#/	.	4r	.	8r	.	4ee'\)	.
.	.	.	.	(8f/	.	.	.
.	.	2E/ 2B/	.	2e/)	.	(4ee'\	.
8GG#/L]	.	.	.	.	.	4ee'\)	.
8E/J	.	.	.	.	.	.	.
=96	=96	=96	=96	=96	=96	=96	=96
([2GGn/	.	4r	.	8r	.	2ee\	.
.	.	.	.	(8f/	.	.	.
.	.	2C/ 2B-/	.	2e/)	.	.	.
8GG/L]	.	.	.	.	.	(4ee\	.
8C/J)	.	.	.	.	.	.	.
=97	=97	=97	=97	=97	=97	=97	=97
([2FF/	.	4r	.	8r	.	4.gg\	.
.	.	.	.	(8b-/	>	.	.
.	.	2C/ 2c/	>	2a/)	.	.	.
.	.	.	.	.	.	8ff\L)	>
8FF/L]	>	.	.	.	.	(8ee'\	.
8C/J)	.	.	.	.	.	8dd'\J)	.
=98	=98	=98	=98	=98	=98	=98	=98
([2GG/	p	4r	.	8r	.	(2cc\	p
.	.	.	.	(8a/	p	.	.
.	.	2E/ 2c/	p	2g/)	.	.	.
8GG/L]	.	.	.	.	.	8ee\L	.
8G/J)	.	.	.	.	.	8dd\J)	.
=99	=99	=99	=99	=99	=99	=99	=99
([2GG/	<	4r	.	8r	.	4dd\	.
.	.	.	.	(8a/	<	.	.
.	.	(4.D/ 4.B/	<	4g/	.	4r	.
8GG/L]	>	.	.	8f/L	>	4r	.
8AA/J)	.	8C/) 8c/	>	8e/J)	.	.	.
=100	=100	=100	=100	=100	=100	=100	=100
([2AA/	.	(4.a\	.	8c/ 8e/	.	(4.aa\	.
.	.	.	.	(8ff\	.	.	.
.	.	.	.	2cc\) 2ee\	.	.	.
.	.	8e\L	.	.	.	8ee\L	.
8AA/L]	.	8cc\)	.	.	.	8ccc\)	.
8E/J)	.	8a'\J	.	.	.	8aa'\J	.
=101	=101	=101	=101	=101	=101	=101	=101
([2BB/	.	(2a\	.	8r	.	(2aa\	.
.	.	.	.	(8ff\	.	.	.
.	.	.	.	2ee\)	.	.	.
8BB/L]	.	4g#\)	.	.	.	4gg#\)	.
8E/J)	.	.	.	.	.	.	.
=102	=102	=102	=102	=102	=102	=102	=102
([2AA/	.	(4.a\	.	8r	.	(4.aa\	.
.	.	.	.	(8ff\	.	.	.
.	.	.	.	2cc\) 2ee\	.	.	.
.	.	8b\L	.	.	.	8bb\L	.
8AA/L])	.	8cc\	.	.	.	8ccc\	.
8E/J	.	8dd\J	.	.	.	8ddd\J	.
=103	=103	=103	=103	=103	=103	=103	=103
([2GG#/	.	4ee'\)	.	8r	.	4eee'\)	.
.	.	.	.	(8f/	.	.	.
.	.	(4ee'\	.	2B/) 2e/	.	(4eee'\	.
8GG#/L]	.	4ee'\)	.	.	.	4eee'\)	.
8E/J)	.	.	.	.	.	.	.
=104	=104	=104	=104	=104	=104	=104	=104
[2GGn/	.	2ee\	.	8r	.	2eee\	.
.	.	.	.	(8f/	.	.	.
.	.	.	.	4B-/ 4e/	.	.	.
4GG/]	.	4ee\	.	4b-/)	.	(4eee\	.
=105	=105	=105	=105	=105	=105	=105	=105
([2FF/	.	4r	.	8r	.	4.ggg\	.
.	.	.	.	(8b-\	>	.	.
.	.	2C/ 2c/	>	4a/	.	.	.
.	.	.	.	.	.	8fff\L)	>
8FF/L]	>	.	.	4aa\)	.	(8eee'\	.
8C/J)	.	.	.	.	.	8ddd'\J)	.
=106	=106	=106	=106	=106	=106	=106	=106
([2GG/	p	4r	.	8r	.	(2ccc\	p
.	.	.	.	(8aa\	p	.	.
.	.	2E/ 2c/	p	2gg\)	.	.	.
8GG/L]	.	.	.	.	.	8eee\L	.
8G/J)	.	.	.	.	.	8ddd\J)	.
=107	=107	=107	=107	=107	=107	=107	=107
([2GG/	<	4r	.	8r	.	4ddd\	.
.	.	.	.	(8aa\	<	.	.
*	*	*^	*	*	*	*	*
.	.	(4.B/	2D\	<	4gg\	.	4r	.
8GG/L]	>	.	.	.	8g/L	.	4r	.
8D/J)	.	8d/)	.	>	8f/J)	>	.	.
*	*	*v	*v	*	*	*	*	*
=108	=108	=108	=108	=108	=108	=108	=108
([2DD/	.	4r	.	8r	.	4r	.
.	.	.	.	(8g/	.	.	.
.	.	2F/ 2A/	.	2f/)	.	(4dd\	.
8DD/L]	.	.	.	.	.	4ff\)	.
8D/J)	.	.	.	.	.	.	.
=109	=109	=109	=109	=109	=109	=109	=109
([2C#/	<	4r	.	8r	.	2.aa\	<
.	.	.	.	(8ff\	<	.	.
.	.	2E/ 2A/	<	2ee\)	.	.	.
8C#/L]	.	.	.	.	.	.	.
8Cn/J)	.	.	.	.	.	.	.
=110	=110	=110	=110	=110	=110	=110	=110
([2EE/	.	4r	.	8r	.	4r	.
.	.	.	.	(8a/	.	.	.
.	.	2G/ 2B/	.	2g/)	.	(4ee\	.
8EE/L]	.	.	.	.	.	4gg\)	.
8E/J)	.	.	.	.	.	.	.
=111	=111	=111	=111	=111	=111	=111	=111
([2D#/	.	4r	.	8r	.	2.bb\	.
.	.	.	.	(8gg\	.	.	.
.	.	([4B/	.	[4ff#\)	.	.	.
8D#/L]	.	8B\L]	.	(8ff#\L]	.	.	.
8Dn/J)	.	8fn\J)	.	8gg#\J)	.	.	.
=112	=112	=112	=112	=112	=112	=112	=112
(2C/	.	4e\	.	8aa\L	.	4r	.
.	.	.	.	(8ffn\J	.	.	.
.	.	2E/ 2c/	.	2ee\)	.	(4aa\	.
8C/L	.	.	.	.	.	4ccc\)	.
8AA/J)	.	.	.	.	.	.	.
=113	=113	=113	=113	=113	=113	=113	=113
([2GG#/	.	4r	.	8r	.	2eee\	.
.	.	.	.	(8ff\	f	.	.
.	.	(4B/ 4d/	f	2ee\)	.	.	.
8GG#/L]	f	4c/)	.	.	.	4eee\	f
8AA/J)	.	.	.	.	.	.	.
=114	=114	=114	=114	=114	=114	=114	=114
(2EE/	.	4r	.	8r	.	(4.eee\	>
.	.	.	.	(8a/	.	.	.
.	.	2E/ 2B/	>	2g#/)	>	.	.
.	.	.	.	.	.	8bb\L	.
8EE/L	>	.	.	.	.	8ddd\	.
8E/J)	.	.	.	.	.	8ccc\J)	.
=115	=115	=115	=115	=115	=115	=115	=115
([2AA/	p	4r	.	(8a\L	<	4aa\	p
.	.	.	.	8aa\J	.	.	.
.	.	(8c\L	p	4ee\	.	4r	.
.	.	8c#\	<	.	.	.	.
8AA/L]	<	8e\	.	8ggn\L	>	4r	.
8D/J)	.	8d\J)	>	8ff\J)	.	.	.
=116	=116	=116	=116	=116	=116	=116	=116
([2DD/	.	4r	.	8r	.	4r	.
.	.	.	.	(8b-/	.	.	.
.	.	(4d\	.	2f/) 2a/	.	(4dd\	.
8DD/L]	.	4f\)	.	.	.	4ff\)	.
8D/J)	.	.	.	.	.	.	.
=117	=117	=117	=117	=117	=117	=117	=117
([2C#/	.	2.a\	.	8r	.	2.aa\	.
.	.	.	.	(8ff\	<	.	.
.	.	.	.	2ee\)	.	.	.
8C#/L]	<	.	.	.	.	.	.
8Cn/J)	.	.	.	.	.	.	.
=118	=118	=118	=118	=118	=118	=118	=118
([2EE/	.	4r	<	8r	.	4r	<
.	.	.	.	(8cc/	.	.	.
.	.	(4e\	.	2g/) 2bn/	.	(4ee\	.
8EE/L]	.	4g\)	.	.	.	4gg\)	.
8E/J)	.	.	.	.	.	.	.
=119	=119	=119	=119	=119	=119	=119	=119
([2D#/	.	([2b\	.	8r	.	2.bb\	.
.	.	.	.	(8gg\	.	.	.
.	.	.	.	[4ff#\	.	.	.
8D#/L]	.	8b\L]	.	8ff#\L]	.	.	.
8Dn/J)	.	8g#\J)	.	8ffn\J)	.	.	.
=120	=120	=120	=120	=120	=120	=120	=120
([2C/	.	4r	.	8r	.	4r	.
.	.	.	.	(8ff\	.	.	.
.	.	(4a\	.	2ee\)	.	(4aa\	.
8C/L]	.	4cc\)	.	.	.	4ccc\)	.
8AA/J)	.	.	.	.	.	.	.
=121	=121	=121	=121	=121	=121	=121	=121
([2GG#/	.	2ee\	.	8r	.	2eee\	.
.	.	.	.	(8f/	.	.	.
*	*	*	*	*^	*	*	*
.	.	.	.	2e/)	(4.B\	.	.	.
8GG#/L]	.	4ee\	.	.	.	.	4eee\	.
8AA/J)	.	.	.	.	8c\)	.	.	.
*	*	*	*	*v	*v	*	*	*
=122	=122	=122	=122	=122	=122	=122	=122
([2EE/	.	(4.ee\	.	8r	.	(4.eee\	.
.	.	.	.	(8a/	.	.	.
.	.	.	.	2B/) 2g#/	.	.	.
.	.	8b\L	.	.	.	8bb\L	.
8EE/L]	.	8dd\	.	.	.	8ddd\	.
8E/J)	.	8cc\J)	.	.	.	8ccc\J)	.
=123	=123	=123	=123	=123	=123	=123	=123
4AA'/	f	4a'\	f	4c'/	f	4aa'\	f
8FF/	.	8f\	.	8cc\	.	8aa\	.
8r	.	8r	.	8r	.	8r	.
8FF/	.	8c\	.	8ff\	.	8aa\	.
8r	.	8r	.	8r	.	8r	.
=124	=124	=124	=124	=124	=124	=124	=124
(8EE/L	f	(8Gn/L	f	4cc\	f	4.bb-\	f
8DD#/J	.	8F#/J	.	.	.	.	.
8EE/	.	8G/)	.	8gn/ 8cc/	.	.	.
8r	.	8r	.	8r	.	(8ff#\L	.
8EE/)	.	8G/	.	8g/ 8cc/	.	8aa\	.
8r	.	8r	.	8r	.	8gg\J)	.
=125	=125	=125	=125	=125	=125	=125	=125
4r	.	4r	.	8r	.	(8bn/L	.
.	.	.	.	(8bb\L	.	8dd/	.
4EE/ 4C/	.	8r	.	8ccc\J)	.	8cc/J)	.
.	.	(8C/L	.	8r	.	(8f#/L	.
4r	.	8c/J)	.	(8ff#\L	.	8a/	.
.	.	8r	.	8ggn\J)	.	8g/J)	.
=126	=126	=126	=126	=126	=126	=126	=126
4r	.	4r	.	8r	.	(8B/L	.
.	.	.	.	(8b\L	.	8d/	.
4EE/ 4C/	.	8r	.	8cc\J)	.	8c/J)	.
.	.	(8C/L	.	8r	.	(8f#/L	.
4r	.	8c/J)	.	(8f#/L	.	8a/	.
.	.	8r	.	8g/J)	.	8g/J)	.
=127	=127	=127	=127	=127	=127	=127	=127
4r	.	4r	.	8r	.	(8b\L	.
.	.	.	.	(8B/L	.	8dd\	.
4EE/ 4C/	f	8r	.	8c/J)	.	8cc\J)	.
.	.	(8G/L	.	8r	.	(8bb\L	.
4r	.	8g/J)	.	(8b/L	.	8ddd\	.
.	.	8r	.	8cc/J)	.	8ccc\J)	.
=128	=128	=128	=128	=128	=128	=128	=128
(8DD/L	f	(8Fn/L	f	(8cc/L	f	4.fffn\	f
8CC#/	.	8G/	.	8a#/	.	.	.
8DD/J)	.	8F/J)	.	8b/J)	.	.	.
8r	.	8r	.	8r	.	(8ee\L	.
8DD/	.	8F/	f	8fn/ 8b/	f	8gg\	.
8r	.	8r	.	8r	.	8ffn\J)	.
=129	=129	=129	=129	=129	=129	=129	=129
4r	.	4r	.	8r	.	(8a#/L	.
.	.	.	.	(8ee\L	.	8cc/	.
4DD/ 4GG/	f	8r	.	8ffn\J)	.	8b/J)	.
.	.	(8G/L	.	8r	.	(8e/L	.
4r	.	8d/J)	.	(8a#/L	.	8g/	.
.	.	8r	.	8b/J)	.	8fn/J)	.
=130	=130	=130	=130	=130	=130	=130	=130
4r	.	4r	.	8r	.	(8e/L	.
.	.	.	.	(8e/L	.	8g/	.
4DD/ 4GG/	.	8r	.	8f/J)	.	8f/J)	.
.	.	(8G\L	.	8r	.	(8a#/L	.
4r	.	8f\J)	.	(8ee\L	.	8cc/	.
.	.	8r	.	8ff\J)	.	8b/J)	.
=131	=131	=131	=131	=131	=131	=131	=131
4r	.	4r	.	8r	.	(8ee\L	.
.	.	.	.	(8ccc#\L	.	8gg\	.
4GG/ 4G/	.	8r	.	8ddd\J)	.	8ff\J)	f
.	.	(8d\L	.	8r	.	(8ee\L	.
4r	.	8b\J)	.	(8cc#\L	.	8gg\	.
.	.	8r	.	8dd\J)	.	8ff\J)	.
=132	=132	=132	=132	=132	=132	=132	=132
*^	*	*	*	*	*	*	*
(8C/L	4CC\	>	(8G/L	.	(8e/L	>	4r	.
8BB/J	.	.	8d/	>	8f/	.	.	.
*v	*v	*	*	*	*	*	*	*
8CC/) 8C/	.	8G/J)	.	8e/J)	.	8r	.
8r	.	(8g\L	.	(8ee\L	.	(8e/L	>
8CC/ 8C/	.	8f\	.	8b\	.	8dd/	.
8r	.	8e\J)	.	8ccn\J)	.	8cc/J)	.
=133	=133	=133	=133	=133	=133	=133	=133
*^	*	*	*	*	*	*	*
(8C/L	4CC\	.	(8F/L	.	(8d/L	.	4r	.
8BB/J	.	.	8G/	.	8e/	.	.	.
*v	*v	*	*	*	*	*	*	*
8CC/) 8C/	.	8F/J)	.	8d/J)	.	8r	.
8r	.	(8d\L	.	(8f/L	.	(8b\L	.
8CC/ 8C/	.	8c\	.	8a/	.	8gg\	.
8r	.	8d\J)	.	8b/J)	.	8ff\J)	.
=134	=134	=134	=134	=134	=134	=134	=134
*^	*	*	*	*	*	*	*
(8C/L	4CC\	p	(8E/L	p	(8c/L	p	4r	.
8BB/J	.	.	8F/	.	8d/	.	.	.
*v	*v	*	*	*	*	*	*	*
4CC/) 4C/	.	8E/J)	.	8c/J)	.	8r	.
.	.	(8g\L	.	(8gg\L	.	(8ee\L	p
8CC/ 8C/	.	8b\	.	8ff\	.	8ddd\	.
8r	p	8cc\J)	p	8ee\J)	p	8ccc\J)	.
=135	=135	=135	=135	=135	=135	=135	=135
*^	*	*	*	*	*	*	*
(8C/L	4CC\	.	(8D/L	.	(8f/L	.	4r	.
8BB/J	.	.	8E/	.	8g/	.	.	.
*v	*v	*	*	*	*	*	*	*
8CC/) 8C/	.	8D/J)	.	8f/J)	.	8r	p
8r	.	(8f\L	.	(8dd\L	.	(8bb\L	.
8CC/ 8C/	.	8c\	.	8a\	.	8ggg\	.
8r	.	(8d\J)	.	8b\J)	.	8fff\J)	.
=136	=136	=136	=136	=136	=136	=136	=136
*^	*	*	*	*	*	*	*
2.ryy	2.r	.	8G\L	pp	(8g\L	pp	(8ddd#\L	pp
.	.	.	8g\	.	8gg\	.	8eee\	.
.	.	.	8f#\	.	8ff#\	.	8aa\	.
.	.	.	8fn\	.	8ffn\	.	8dddn\	.
.	.	.	8g\	.	8gg\	.	8bb\	.
.	.	.	[8e\J	.	[8ee\J	.	8ccc\J	.
=137	=137	=137	=137	=137	=137	=137	=137	=137
2.ryy	2.r	.	8e\L]	.	8ee\L]	.	8ff\L	.
.	.	.	8d\	.	8dd\	.	8bb\	.
.	.	.	8c#\	.	8cc#\	.	8ee\	.
.	.	.	8cn\	.	8ccn\	.	8aa\	.
.	.	.	8d\	.	8dd\	.	8ff#\	.
.	.	.	8B\J	.	8b\J	.	8gg\J	.
=138	=138	=138	=138	=138	=138	=138	=138	=138
2.ryy	2.r	.	8B-/L	.	8b-/L	.	8cc\L	.
.	.	.	8A/	.	8a/	.	8ffn\	.
.	.	.	8G#/	.	8g#/	.	8b\	.
.	.	.	8Gn/	.	8gn/	.	8ee\	.
.	.	.	8A/	.	8a/	.	8cc#\	.
.	.	.	8F/J	.	8f/J	.	8dd\J	.
*v	*v	*	*	*	*	*	*	*
=139	=139	=139	=139	=139	=139	=139	=139
4r	.	8E/L	.	8e/L	.	8g\L	.
.	.	8E-/	.	8e-/	.	8ccn\	.
2g\	pp	8En/	.	8en/	.	8gg\	.
.	.	8A/	.	8a/	.	8cc\	.
.	.	8D/	.	8d/	.	8ff\	.
.	.	8G/J)	.	8g/J)	.	8b\J)	.
=140	=140	=140	=140	=140	=140	=140	=140
(8G\L	.	(8d#/L	.	(8dd#\L	.	(8gg\L	.
8g\	<	8e/	<	8ee\	<	8cc\	<
8F\	.	8A/	.	8a\	.	8gg\	.
8f\	.	8dn/	.	8ddn\	.	8g\J	.
8E\	.	8Bn/	.	8bn\	.	8aa\L	.
8e\J	.	8c/J	.	8cc\J	.	8gg\J	.
=141	=141	=141	=141	=141	=141	=141	=141
8D\L	.	8F/L	.	8f/L	.	8bb\L	.
8d\	.	8B/	.	8b/	.	8gg\	.
8C\	.	8E/	.	8e/	.	8ccc\	.
8c\	.	8A/	.	8a/	.	8gg\	.
8BB\	.	8F#/	.	8f#/	.	8ddd\	.
8B\J	.	8G/J	.	8g/J	.	8gg\J	.
=142	=142	=142	=142	=142	=142	=142	=142
8AA\L	.	8C/L)	.	8c/L)	.	8eee\L	.
8A\	.	(8f\	.	(8ffn\	.	8gg\	.
8GG\	.	8B\	.	8b\	.	8fff\	.
8G\	.	8e\	.	8ee\	.	8gg\	.
8FF\	.	8c#\	.	8cc#\	.	8ggg\	.
8F\J	.	8d\J	.	8dd\J	.	8gg\J)	.
=143	=143	=143	=143	=143	=143	=143	=143
8EE/L	.	8B\L	.	8b\L	.	(8ggg\L	.
8E/	.	8cn\	.	8ccn\	.	8gg\	.
8EE-/	.	8g\	.	8gg\	.	8ggg\	.
8E-/	.	8c\	.	8cc\	.	8gg\	.
8DD/	.	8f\	.	8ff\	.	8ggg\	.
8D/J)	.	8B\J)	.	8b\J)	.	8gg\J)	.
=144	=144	=144	=144	=144	=144	=144	=144
4.DD/	f	4F/ 4G/	f	4b\ 4ff\	f	(8ggg\L	f
.	.	.	.	.	.	8fff#\J)	.
.	.	8F/ 8G/	.	8d/ 8b/	.	8gg\ 8ggg\	.
(8EEn/L	.	8r	.	8r	.	8r	.
8GG/	.	8F/ 8G/	.	8d/ 8b/	.	8gg\ 8ggg\	.
8FF/J)	.	8r	.	8r	.	8r	.
=145	=145	=145	=145	=145	=145	=145	=145
(8AA#/L	.	8r	.	4r	.	4r	.
8C/	.	(8e\L	.	.	.	.	.
8BB/J)	.	8f\J)	.	8r	.	4dd\ 4gg\	.
(8C#/L	.	8r	.	(8g/L	.	.	.
8E/	.	(8A#/L	.	8G/J)	.	4r	.
8D/J)	.	8B/J)	.	8r	.	.	.
=146	=146	=146	=146	=146	=146	=146	=146
(8E\L	.	8r	.	4r	.	4r	.
8G\	.	(8c#\L	.	.	.	.	.
8F\J)	.	8d\J)	.	8r	.	4b\ 4gg\	.
(8A#\L	.	8r	.	(8g/L	.	.	.
8cn\	.	(8e\L	.	8G/J)	.	4r	.
8B\J)	.	8f\J)	.	8r	.	.	.
=147	=147	=147	=147	=147	=147	=147	=147
(8c#\L	.	8r	.	8r	.	4r	.
8e\	.	(8cc#\L	.	(8g/L	.	.	.
8d\J)	.	8dd\J)	.	8f/J)	.	4b\ 4gg\	.
(8e\L	.	(8cc#\L	.	(8g/L	.	.	.
8g\	.	8ee\	.	8G/J)	.	4r	.
8f\J)	.	8b\J)	.	8r	.	.	.
=148	=148	=148	=148	=148	=148	=148	=148
4.CC/	f	4cn\ 4d\	f	4f#/ 4a/	f	(8ddd\L	f
.	.	.	.	.	.	8ccc#\J	.
.	.	8c\ 8d\	.	8f#/ 8a/	.	8dd\) 8ddd\	.
(8EE/L	.	8r	.	8r	.	8r	.
8GG/	.	8c\ 8d\	.	8f#/ 8a/	.	8dd\ 8ddd\	.
8FF#/J)	.	8r	.	8r	.	8r	.
=149	=149	=149	=149	=149	=149	=149	=149
(8GG#/L	.	8r	.	8r	.	4r	.
8BB/	.	(8d\L	.	(8g#/L	.	.	.
8AAn/J)	.	8c\J)	.	8a/J)	.	4dd\ 4ddd\	.
(8BB/L	.	(8d\L	.	8r	.	.	.
8D/	.	8D/J)	.	(8B/L	.	4r	.
8C/J)	.	8r	.	8c/J)	.	.	.
=150	=150	=150	=150	=150	=150	=150	=150
(8E\L	.	8r	.	8r	.	4r	.
8Gn\	.	(8e\L	.	(8cc#\L	.	.	.
8F#\J)	.	8d\J)	.	8dd\J)	.	4dd\ 4ddd\	.
(8G#\L	.	(8d/L	.	8r	.	.	.
8B\	.	8D/	.	(8gg#\L	.	4r	.
8A\J)	.	8c/J)	.	8aa\J)	.	.	.
=151	=151	=151	=151	=151	=151	=151	=151
(8B\L	.	8r	.	8r	.	4r	.
8d\	.	(8b\L	.	(8gg#\L	.	.	.
8c\J)	.	8a\J)	.	8aa\J)	.	4dd\ 4ddd\	.
(8B\L	.	(8dd\L	.	8r	.	.	.
8d\	.	8b\	.	(8gg#\L	.	4r	.
8c\J)	.	8a\J)	.	8aa\J)	.	.	.
=152	=152	=152	=152	=152	=152	=152	=152
4.BB/	f	4G#\ 4g#\	f	4dd\ 4ffn\	f	(8fffn\L	f
.	.	.	.	.	.	8eee\J	.
.	.	8G#\ 8g#\	.	8dd\ 8ff\	.	8ff\) 8fff\	.
(8C#/L	.	8r	.	8r	.	8r	.
8E/	.	8G#\ 8g#\	.	8b\ 8ff\	.	8ff\ 8fff\	.
8D/J)	.	8r	.	8r	.	8r	.
=153	=153	=153	=153	=153	=153	=153	=153
(8E\L	.	8r	.	8r	.	4r	.
8Gn\	.	(8e\L	.	(8cc#\L	.	.	.
8Fn\J)	.	8d\J)	.	8dd\J)	.	4ff\ 4fff\	.
(8A#\L	.	(8f\L	.	8r	.	.	.
8c\	.	8e\	.	(8ee\L	.	4r	.
8B\J)	.	8d\J)	.	8ff\J)	.	.	.
=154	=154	=154	=154	=154	=154	=154	=154
*clefC4	*clefC4	*	*	*	*	*	*
(8c#\L	.	8r	.	8r	.	4r	.
8e\	.	(8cc#\L	.	(8gg\L	.	.	.
8d\J)	.	8dd\J)	.	8ff\J)	.	4ff\ 4fff\	.
(8e\L	.	8r	.	8r	.	.	.
8g\	.	(8Gn/L	.	(8ee\L	.	4r	.
8f\J)	.	8G#/J)	.	8dd\J)	.	.	.
=155	=155	=155	=155	=155	=155	=155	=155
(8c#\L	.	8r	.	(8ee\L	.	4r	.
8e\	.	(8A#/L	.	8gg\	.	.	.
8d\J)	.	8B/J)	.	8ff\J)	.	4ff\ 4fff\	.
(8c#\L	.	(8e\L	.	(8aa#\L	.	.	.
8e\	.	8gn\	.	8cccn\	.	4r	.
8d\J)	.	8f\J)	.	8bb\J)	.	.	.
=156	=156	=156	=156	=156	=156	=156	=156
*clefF4	*clefF4	*	*	*	*	*	*
4.CC#/	.	4E/ 4G/	f	4b-\ 4bb-\	f	(8eee\L	.
.	.	.	.	.	.	8ddd#\J	f
.	.	8E/ 8G/	.	8b-\ 8bb-\	.	8ee\) 8eee\	.
(8BBB#/L	f	8r	.	8r	.	8r	.
8DD/	.	8E/ 8G/	.	8b-\ 8bb-\	.	8ee\ 8eee\	.
8CC#/J)	.	8r	.	8r	.	8r	.
=157	=157	=157	=157	=157	=157	=157	=157
(8FF#/L	.	8r	.	8r	.	4r	.
8AA/	.	(8f#\L	.	(8ff#\L	.	.	.
8GG/J)	.	8g\J)	.	8gg\J)	.	4ee\ 4eee\	.
(8BB#/L	.	(8B-/L	.	(8gg\L	.	.	.
8D/	.	8G#/	.	8ffn\	.	4r	.
8C#/J)	.	8A/J)	.	8ee\J)	.	.	.
=158	=158	=158	=158	=158	=158	=158	=158
(8F#\L	.	8r	.	8r	.	4r	.
8A\	.	(8f#\L	.	(8aa\L	.	.	.
8G\J)	.	8gn\J)	.	8bb-\J)	.	4ee\ 4eee\	.
*clefC4	*clefC4	*	*	*	*	*	*
(8B#\L	.	(8b-\L	.	(8gg\L	.	.	.
8d\	.	8g#\	.	8ff\	.	4r	.
8c\J)	.	8a\J)	.	8ee\J)	.	.	.
=159	=159	=159	=159	=159	=159	=159	=159
(8f#\L	.	8r	.	8r	.	4r	.
8a\	.	(8cc\L	.	(8ff#\L	.	.	.
8g\J)	.	8b-\J)	.	8gg\J)	.	4ee\ 4eee\	.
(8f#\L	.	(8a\L	.	(8aa\L	.	.	.
8a\	.	8cc\	.	8ff#\	.	4r	.
8g\J)	.	8b-\J)	.	8gg\J)	.	.	.
=160	=160	=160	=160	=160	=160	=160	=160
(8d\L	.	(8fn\L	.	(8b-\L 8gg\	.	4r	.
8fn\	>	8a\	>	8dd\	>	.	.
8e\J)	.	8g\J)	.	8cc#\J)	.	8r	.
8r	.	8r	.	8r	.	(8bbn\L	>
4r	.	4r	.	4r	.	8dddn\	.
.	.	.	.	.	.	8ccc#\J)	.
=161	=161	=161	=161	=161	=161	=161	=161
(8e\L	.	(8g\L	.	(8cc#\L	.	4r	.
8g\	.	8b-\	.	8ee\	.	.	.
8fn\J)	.	8a\J)	.	8dd\J)	.	8r	.
8r	.	8r	.	8r	.	(8ccc#\L	.
4r	.	4r	.	4r	.	8eee\	.
.	.	.	.	.	.	8ddd\J)	.
=162	=162	=162	=162	=162	=162	=162	=162
*clefF4	*clefF4	*	*	*	*	*	*
(8BB-/L	p	(8f\L	p	(8dd\L	.	4r	.
8GG/	.	8dd\	.	8ffn\	p	.	.
8AA/J)	.	8cc#\J)	.	8ee\J)	.	8r	.
8r	.	8r	.	8r	.	(8ddd\L	p
4r	.	4r	.	4r	.	8fff\	.
.	.	.	.	.	.	8eee\J)	.
=163	=163	=163	=163	=163	=163	=163	=163
(8BB-/L	p	(8cc#\L	p	(8ee\L	p	4r	.
8GG/	.	8ee\	.	8gg\	.	.	.
8AA/J)	.	8dd\J)	.	8ff\J)	.	8r	.
8r	.	8r	.	8r	.	(8eee\L	p
4r	.	4r	.	4r	.	8ggg\	.
.	.	.	.	.	.	8fff\J)	.
=164	=164	=164	=164	=164	=164	=164	=164
*clefC4	*clefG2	*	*	*	*	*	*
[2.b-\	pp	8r	.	4r	.	4r	.
.	.	(8d\	pp	.	.	.	.
.	.	[2c#\)	.	8r	.	4r	.
.	.	.	.	(8f/	pp	.	.
.	.	.	.	[4e/)	.	8r	.
.	.	.	.	.	.	(8a/	pp
=165	=165	=165	=165	=165	=165	=165	=165
8b-\L]	.	2c#\_	.	2.e/]	.	2.g/)	.
(8b-\J	.	.	.	.	.	.	.
[2a\)	.	.	.	.	.	.	.
.	.	(8c#/L]	.	.	.	.	.
.	.	8C#/J)	.	.	.	.	.
=166	=166	=166	=166	=166	=166	=166	=166
*	*	*	*	*	*	*^	*
8a\L]	.	([2D/	.	4d/	.	(4.f/	2.A\	.
(8b-\J	.	.	.	.	.	.	.	.
2a\)	.	.	.	4r	.	.	.	.
.	.	.	.	.	.	8g/	.	.
.	.	8D/L]	>	4r	.	4f/	.	<
.	.	8A/J)	.	.	.	.	.	.
=167	=167	=167	=167	=167	=167	=167	=167	=167
8r	>	([2E/	.	2.r	.	4.g/	2.A\	.
(8b-\	.	.	.	.	.	.	.	.
2a\)	.	.	.	.	.	.	.	.
.	.	.	.	.	.	8a/	.	.
.	.	8E/L]	.	.	.	4g/)	.	<
.	.	8A/J)	.	.	.	.	.	.
=168	=168	=168	=168	=168	=168	=168	=168	=168
8r	.	[2D/	.	(4.dd\	.	(4.f/	2.A\	.
8b-\	.	.	.	.	.	.	.	.
2a\	.	.	.	.	.	.	.	.
.	.	.	.	8a\L	.	8g/	.	.
.	.	8D/L]	.	8ff\)	.	4f/)	.	.
.	.	8A/J	.	8dd'\J	.	.	.	.
*	*	*	*	*	*	*v	*v	*
=169	=169	=169	=169	=169	=169	=169	=169
8r	.	([2E/	.	(2dd\	.	4.A/ 4.g/	.
(8b-\	.	.	.	.	.	.	.
2a\)	.	.	.	.	.	.	.
.	.	.	.	.	.	(8bb-\L	.
.	.	8E/L]	.	4cc#\)	<	8aa\	.
.	.	8A/J)	.	.	.	8ccc#\J)	.
=170	=170	=170	=170	=170	=170	=170	=170
8r	.	([2D/	.	2A/ 2f/	.	(4.ddd\	.
(8b-\	.	.	.	.	.	.	.
4a\	.	.	.	.	.	.	.
.	.	.	.	.	.	8aa\L	.
4g\)	.	8D/L]	.	4G/ 4f/	.	8fff\)	.
.	.	8Bn/J)	.	.	.	8ddd'\J	.
=171	=171	=171	=171	=171	=171	=171	=171
8r	.	([2E/	.	(4.G/	.	(2ddd\	.
(8a\	.	.	.	.	.	.	.
2g\)	.	.	.	.	.	.	.
.	.	.	.	8f/	.	.	.
.	.	8E/L]	.	4e/)	.	4cccn\)	<
.	.	8G/J)	.	.	.	.	.
=172	=172	=172	=172	=172	=172	=172	=172
(8f\L	.	([2D/	.	(4.dd\	.	4r	.
8b-\J	.	.	.	.	.	.	.
2a\)	.	.	.	.	.	8r	.
.	.	.	.	8a\L	.	(8g/	.
.	.	8D/L]	.	8ff\)	.	4A/) 4f/	.
.	.	8A/J)	.	8dd'\J	.	.	.
=173	=173	=173	=173	=173	=173	=173	=173
8r	.	([2E/	.	(2dd\	.	4A/ 4g/	.
(8b-\	.	.	.	.	.	.	.
2a\)	.	.	.	.	.	(8gg\L	.
.	.	.	.	.	.	8ee\	.
.	.	8E/L]	.	4cc#\)	<	8bb-\)	.
.	.	8A/J)	.	.	.	8gg'\J	.
=174	=174	=174	=174	=174	=174	=174	=174
8r	.	([2D/	.	(4.dd\	.	(2gg\	.
(8b-\	<	.	.	.	.	.	.
2a\)	.	.	.	.	.	.	.
.	.	.	.	8ee\L	<	.	.
.	.	8D/L]	<	8ff\	.	4ff\)	<
.	.	8A/J)	.	8gg\J	.	.	.
=175	=175	=175	=175	=175	=175	=175	=175
8r	.	([2C#/	.	4aa'\)	.	4r	.
(8bn\	.	.	.	.	.	.	.
2a\)	.	.	.	(4aa'\	.	8r	.
.	.	.	.	.	.	(8ff\	.
.	.	8C#/L]	.	4aa'\)	.	4ee\)	.
.	.	8Cn/J)	.	.	.	.	.
=176	=176	=176	=176	=176	=176	=176	=176
*clefC4	*clefC4	*	*	*	*	*	*
8r	.	([2A/	p	(4.ccn\	p	(4.aa\	p
(8f\	p	.	.	.	.	.	.
2e\)	.	.	.	.	.	.	.
.	.	.	.	8dd\	.	8ee\L	.
.	.	8A/L]	.	4cc\)	.	8ccc\)	.
.	.	8e/J)	.	.	.	8aa'\J	.
=177	=177	=177	=177	=177	=177	=177	=177
8r	.	([2B/	.	4r	.	(2aa\	.
8f\	.	.	.	.	.	.	.
2e\	.	.	.	8r	.	.	.
.	.	.	.	(8ee\	.	.	.
.	.	8B/L]	.	4dd\)	.	4gg#\)	.
.	.	8e/J)	.	.	.	.	.
=178	=178	=178	=178	=178	=178	=178	=178
8r	.	([2A/	<	4r	.	(4.aa\	.
(8f\	<	.	.	.	.	.	.
2e\)	.	.	.	8r	.	.	.
.	.	.	.	(8dd\	<	8bb\L	<
.	.	8A/L]	.	4cc\)	.	8ccc\	.
.	.	8e/J)	.	.	.	8ddd\J	.
=179	=179	=179	=179	=179	=179	=179	=179
8r	.	([2G#/	.	4r	.	4eee'\)	.
(8f\	.	.	.	.	.	.	.
2e\)	.	.	.	8r	.	(4eee'\	.
.	.	.	.	(8cc\	.	.	.
.	.	8G#/L]	.	4b\)	.	4eee'\)	.
.	.	8e/J)	.	.	.	.	.
=180	=180	=180	=180	=180	=180	=180	=180
8r	.	([2Gn/	.	4r	.	2eee\	.
(8c\	.	.	.	.	.	.	.
2B-\)	.	.	.	8r	.	.	.
.	.	.	.	(8dd\	.	.	.
.	.	8G/L]	.	4cc\)	.	(4eee\	.
.	.	8c/J)	.	.	.	.	.
=181	=181	=181	=181	=181	=181	=181	=181
8r	.	([2F/	>	4r	.	4.ggg\	.
(8B-\	>	.	.	.	.	.	.
2A\)	.	.	.	8r	.	.	.
.	.	.	.	(8dd\	>	8fff\L)	>
.	.	8F/L]	.	4cc\)	.	(8eee'\	.
.	.	&(8c/J&))	.	.	.	8ddd'\J)	.
=182	=182	=182	=182	=182	=182	=182	=182
8r	.	([2G/	p	4r	.	(2ccc\	p
(8A/	p	.	.	.	.	.	.
2G/)	.	.	.	8r	.	.	.
.	.	.	.	(8dd\L	p	.	.
.	.	8G/L]	.	8cc\	.	8eee\L	.
.	.	8g/J)	.	8b\J)	.	8ddd\J)	.
=183	=183	=183	=183	=183	=183	=183	=183
8r	.	([2G/	.	(8b\L	<	4ddd\	.
(8a\	.	.	.	8cc\	.	.	.
4.g\	<	.	.	8b\	.	4r	.
.	.	.	.	8ee\J	>	.	.
.	.	8G/L]	<	4dd\)	.	4r	.
8f\)	>	&(8d/J&))	.	.	.	.	.
=184	=184	=184	=184	=184	=184	=184	=184
8r	.	([2D/	.	4r	.	4r	.
(8g\	.	.	.	.	.	.	.
2f\)	.	.	.	8r	.	(4ddd\	.
.	.	.	.	(8ee\	.	.	.
.	.	8D/L]	.	4dd\)	.	4fff\)	.
.	.	8d/J)	.	.	.	.	.
=185	=185	=185	=185	=185	=185	=185	=185
4r	.	(2c#/	<	8r	.	2.aaa\	<
.	.	.	.	(8f/L	.	.	.
*clefF4	*clefF4	*	*	*	*	*	*
4AA/	.	.	.	8e/	<	.	.
.	.	.	.	8b/J	.	.	.
4C/	<	8cn/L)	.	4a/)	.	.	.
.	.	&(8A/J&)	.	.	.	.	.
=186	=186	=186	=186	=186	=186	=186	=186
*clefC4	*clefC4	*	*	*	*	*	*
8r	.	([2E/	.	4r	.	4r	.
(8a\	.	.	.	.	.	.	.
2g\)	.	.	.	8r	.	(4ee\	.
.	.	.	.	(8cc\	.	.	.
.	.	8E/L]	.	4b\)	.	4gg\)	.
.	.	8e/J)	.	.	.	.	.
=187	=187	=187	=187	=187	=187	=187	=187
*clefF4	*clefF4	*	*	*	*	*	*
4r	.	(2d#/	.	8r	.	2.bb\	.
.	.	.	.	(8g/L	.	.	.
4BB/	.	.	.	8f#/	.	.	.
.	.	.	.	8cc/	.	.	.
4D/	.	8dn/L)	.	8fn/ 8b/	.	.	.
.	.	&(8G#/J&)	.	8ff/J)	.	.	.
=188	=188	=188	=188	=188	=188	=188	=188
4C#/	.	([2E/	.	8r	.	4r	.
.	.	.	.	(8ff/L	.	.	.
4Cn/	.	.	.	8ee/	.	(4aa\	.
.	.	.	.	8f/	.	.	.
4AA/	.	8E/L]	.	8e/	.	4ccc\)	.
.	.	8c/J)	.	8a/J)	.	.	.
=189	=189	=189	=189	=189	=189	=189	=189
4GG#/	.	([2E/	.	8r	.	2eee\	.
.	.	.	.	(8f/L	f	.	.
4BB/	f	.	.	8e/	.	.	.
.	.	.	.	8dd/	.	.	.
4AA/	.	8E/L]	f	8cc/	.	4eee\	f
.	.	8c/J)	.	8aa/J)	.	.	.
=190	=190	=190	=190	=190	=190	=190	=190
4GG#/	.	[2E/	>	8r	.	(4.eee\	.
.	.	.	.	(8cc/L	>	.	.
4EE/	>	.	.	8b/	.	.	.
.	.	.	.	8g#/	.	8bb\L	>
4EE/	.	8E/L]	.	8b/	.	8ddd\	.
.	.	8A/J	.	8a/J)	.	8ccc\J)	.
=191	=191	=191	=191	=191	=191	=191	=191
4AA/	p	8A/	p	8c/ 8a/	p	4aa\	p
.	.	(8D#/L	f	(8d#/L	f	.	.
4r	.	8E/J)	.	8e/J)	.	4r	.
.	.	(8D#/L	.	(8d#/L	.	.	.
4r	.	8E/J)	.	8e/J)	.	4r	.
.	.	8E/	.	8e/	.	.	.
=192	=192	=192	=192	=192	=192	=192	=192
([2AA/	>	[2.E/	>	[2.e/	>	(4.fff\	.
.	.	.	.	.	.	8ccc\L	>
8AA/L]	.	.	.	.	.	8eee\	.
8E/J)	.	.	.	.	.	8ddd\J)	.
=193	=193	=193	=193	=193	=193	=193	=193
4GG#/	p	8E/]	p	8e/]	p	4bb\	p
.	.	(8D#/L	f	(8d#/L	f	.	.
4r	.	8E/J)	.	8e/J)	.	4r	.
.	.	(8D#/L	.	(8d#/L	.	.	.
4r	.	8E/J)	.	8e/J)	.	4r	.
.	.	8E/	.	8e/	.	.	.
=194	=194	=194	=194	=194	=194	=194	=194
([2GG#/	>	[2.E/	>	[2.e/	.	(4.eee\	>
.	.	.	.	.	.	8bb\L	.
8GG#/L]	.	.	.	.	.	8ddd\	.
8E/J)	.	.	.	.	.	8ccc\J)	.
=195	=195	=195	=195	=195	=195	=195	=195
8AA/	p	8E/]	p	8e/]	>	4aa\	p
(8F\L	f	(8d#\L	f	(8dd#\L	f	.	.
8E\J)	.	8e\J)	.	8ee\J)	.	4r	.
(8F\L	.	(8d#\L	.	(8dd#\L	.	.	.
8E\J)	.	8e\J)	.	8ee\J)	.	4r	.
8E\	.	8e\	.	8ee\	.	.	.
=196	=196	=196	=196	=196	=196	=196	=196
([2AA/	.	2.E/	.	2.e/ 2.ee/	.	(4.fff\	f
.	.	.	.	.	.	8ccc\L	.
8AA/L]	.	.	.	.	.	8eee\	.
8E/J)	.	.	.	.	.	8ddd\J)	.
=197	=197	=197	=197	=197	=197	=197	=197
8GG#/	.	8E/	.	8e/ 8ee/	.	8bb\	.
8r	.	8r	.	8r	.	8r	.
8G#\	.	8d\	.	8ff\	.	8bb\	.
8r	.	8r	.	8r	.	8r	.
8A\	.	8c\	.	8ee\	.	8ccc\	.
8r	.	8r	.	8r	.	8r	.
=198	=198	=198	=198	=198	=198	=198	=198
8d\	.	8a\	.	8ff\	.	8ddd\	.
8r	.	8r	.	8r	.	8r	.
8e\	.	8a\	.	8ee\	.	8ccc\	.
8r	.	8r	.	8r	.	8r	.
8E\	.	8g#\	.	8ee\	.	8bb\	.
8r	.	8r	.	8r	.	8r	.
=199	=199	=199	=199	=199	=199	=199	=199
8A\	.	8a\	.	8cc\ 8ee\	.	8aa\	.
8r	.	(8A/L	.	(8cc\L	.	(8ddd#\L	.
4r	.	8G#/J)	.	8b\J)	.	8eee\J)	.
.	.	(8A/L	.	(8cc\L	.	(8ddd#\L	.
4r	.	8G#/J)	.	8b\J)	.	8eee\J)	.
.	.	8A/	.	8cc\	.	8eee\	.
=200	=200	=200	=200	=200	=200	=200	=200
*clefC4	*clefC4	*	*	*	*	*	*
(4.f\	>	2.A/	>	(4.ff\	>	[2.eee\	.
8c\L	.	.	.	8cc\L	.	.	.
8e\	.	.	.	8ee\	.	.	.
8d\J)	.	.	.	8dd\J)	.	.	.
=201	=201	=201	=201	=201	=201	=201	=201
8B\	p	8G#/	p	8b\	p	8eee\]	>
*clefF4	*clefF4	*	*	*	*	*	*
(8AA/L	f	4E/	f	(8c/L	f	(8ddd#\L	f
8GG/J)	.	.	.	8B/J)	.	8eee\J)	.
(8AA#/L	.	4E/	.	(8c/L	.	(8ddd#\L	.
8GG/J)	.	.	.	8B/J)	.	8eee\J)	.
8GG/	.	8E/	.	8B/	.	8eee\	.
=202	=202	=202	=202	=202	=202	=202	=202
*clefC4	*clefC4	*	*	*	*	*	*
(4.e\	>	[2G#/ [2B/	>	(4.ee\	>	[2.eee\	.
8B\L	.	.	.	8b\L	.	.	.
8d\	.	(8G#/L] 8B/]	.	8dd\	.	.	.
8c\J)	.	8A/J)	.	8cc\J)	.	.	.
=203	=203	=203	=203	=203	=203	=203	=203
8c\	p	8A/	p	8cc\	p	8eee\]	>
8r	.	(8A/L	f	(8c/L	f	(8ddd#\L	.
4r	.	8G#/J)	.	8B/J)	.	8eee\J)	f
.	.	(8A/L	.	4c/	.	(8ddd#\L	.
*clefF4	*clefF4	*	*	*	*	*	*
8r	.	8C/J)	.	.	.	8eee\J)	.
(8AA-/	f	(8C/	.	(8c/	.	8fff#\	.
=204	=204	=204	=204	=204	=204	=204	=204
8GGn/)	.	8D/)	.	8B/)	.	(4.ggg\	f
(8AA/L	.	(8C/L	.	(8c/L	.	.	.
8GG/J)	.	8D/J)	.	8B/J)	.	.	.
(8AA/L	.	(8C/L	.	(8c/L	.	8dddn\L	.
8GG/J)	.	8D/J)	.	8B/J)	.	8fffn\	.
(8GG/	.	(8C/	.	(8c/	.	8eee\J)	.
=205	=205	=205	=205	=205	=205	=205	=205
4C/)	.	8G/)	.	8e/)	.	8ccc\	.
.	.	8r	.	8r	.	8r	.
8BB/	.	8G/	.	8gg\	.	8ddd\	.
8r	.	8r	.	8r	.	8r	.
8C/	.	8G/	.	8ee\	.	8eee\	.
8r	.	8r	.	8r	.	8r	.
=206	=206	=206	=206	=206	=206	=206	=206
8FF/	.	8cc\	.	8a/	.	8fff\	.
8r	.	8r	.	8r	.	8r	.
8GG/	.	8cc\	.	8g/	.	8eee\	.
8r	.	8r	.	8r	.	8r	.
8GG/	.	8b\	.	8ff\	.	8ddd\	.
8r	.	8r	.	8r	.	8r	.
=207	=207	=207	=207	=207	=207	=207	=207
4C/	.	8g\	.	8ee\	.	8ccc\	.
.	.	8r	.	8r	.	8r	.
4r	.	8cc\	p	8ee\	p	4r	.
.	.	8r	.	8r	.	.	.
4r	.	8dd\	.	8ff\	.	4r	.
.	.	8r	.	8r	.	.	.
=208	=208	=208	=208	=208	=208	=208	=208
*clefC4	*clefG2	*	*	*	*	*	*
4r	.	8ee\	.	8gg\	.	4r	.
.	.	8r	.	8r	.	.	.
8cc\	p	8dd\	.	8ff\	.	8eee\	p
8r	.	8r	.	8r	.	8r	.
8cc\	.	8cc\	.	8ee\	.	8fff\	.
8r	.	8r	.	8r	.	8r	.
=209	=209	=209	=209	=209	=209	=209	=209
8cc\	.	4e\	.	8g\L	.	(2ggg\	.
8r	.	.	.	(8gg\	.	.	.
8e\	.	4r	.	8aa\	.	.	.
8r	.	.	.	8ff#\J	.	.	.
8ee\	.	(8e\L	.	8gg\)	.	4ccc\)	.
8r	.	8ee\J)	.	8r	.	.	.
=210	=210	=210	=210	=210	=210	=210	=210
4r	.	(8ee\L	.	8r	.	4bb\	.
.	.	8dd\J)	.	(8ffn\L	.	.	.
8d\	.	4r	.	8gg\	.	4r	.
8r	.	.	.	8ee\J	.	.	.
8dd\	.	(8d\L	.	8ff\)	.	4bb\	.
8r	.	8dd\J)	.	8r	.	.	.
=211	=211	=211	=211	=211	=211	=211	=211
4r	.	(8dd\L	.	8r	.	(2eee\	.
.	.	8cc\J)	.	(8ee\L	.	.	.
8c\	.	4r	.	8ff\	.	.	.
8r	.	.	.	8dd\J	.	.	.
8cc\	.	(8c\L	.	8ee\)	.	4aa\)	.
8r	.	8cc\J)	.	8r	.	.	.
=212	=212	=212	=212	=212	=212	=212	=212
4r	.	(8cc\L	.	8r	.	4gg\	.
.	.	8b\J)	.	(8dd\L	.	.	.
8B\	.	4r	.	8ee\	.	4r	.
8r	.	.	.	8cc\J	.	.	.
8b\	.	(8B\L	.	8dd\)	.	(4gg\	.
8r	.	8b\J)	.	8r	.	.	.
=213	=213	=213	=213	=213	=213	=213	=213
4r	.	4a\	.	8r	.	4ccc'\)	.
.	.	.	.	(8cc\L	.	.	.
*clefC4	*clefC4	*	*	*	*	*	*
8A\	.	4r	.	8dd\	.	(4ffn\	.
8r	.	.	.	8b\	.	.	.
(8a\L	.	4r	.	8cc\	.	4ee'\)	.
8g\J	.	.	.	8b\J	.	.	.
=214	=214	=214	=214	=214	=214	=214	=214
8f\L	.	4r	.	8a\L	.	(4dd\	.
8g\	.	.	.	8b\	.	.	.
8e\	.	(8g\L	.	8g\	.	4cc'\)	.
8d\	.	8f\	.	8a\	.	.	.
8c\	.	8e\	.	8b\	.	(4ee\	.
8e\J)	.	8g\J)	.	8cc\J)	.	.	.
=215	=215	=215	=215	=215	=215	=215	=215
(2.f\	<	(2.a\	<	(8cc\L	.	2dd\	<
.	.	.	.	8b\	<	.	.
.	.	.	.	8cc\	.	.	.
.	.	.	.	8a\	.	.	.
.	.	.	.	8b\	.	4aa\	.
.	.	.	.	8cc\J	.	.	.
=216	=216	=216	=216	=216	=216	=216	=216
2e\)	>	2b\)	.	8ee\L	>	2gg#\)	>
.	.	.	.	8b\	.	.	.
.	.	.	.	8ee\	.	.	.
.	.	.	.	8dd\	.	.	.
(4e\	.	(4E/	>	8cc\	.	(4ccc'\	.
.	.	.	.	8ee\J)	.	.	.
=217	=217	=217	=217	=217	=217	=217	=217
(2d\)	<	2F/)	.	(2dd\	<	2ccc'\	<
4a\	.	[4F/	<	4aa\	.	4ccc'\)	.
=218	=218	=218	=218	=218	=218	=218	=218
2g#\)	>	2F/]	>	2gg#\)	>	2ccc\	>
[4a\	.	[4f\	.	[4aa\	.	(8ccc\L	.
.	.	.	.	.	.	8eee\J	<
=219	=219	=219	=219	=219	=219	=219	=219
2a\]	<	2f\]	<	2aa\]	<	2ddd\	.
(4a\	.	[4f\	.	(4aa\	.	4aaa\	.
=220	=220	=220	=220	=220	=220	=220	=220
2b-\)	.	2f\]	.	2bb-\)	.	2ggg#\)	.
*clefC4	*clefG2	*	*	*	*	*	*
(8a\L	ff	[4F/ [4c/	f	[4cc\ [4aa\	f	[4aaa\	f
8cc\J	.	.	.	.	.	.	.
=221	=221	=221	=221	=221	=221	=221	=221
8bn\L	.	4.F/] 4.c/]	.	4.cc\] 4.aa\]	.	4.aaa\]	.
8cc\	.	.	.	.	.	.	.
8a\J)	.	.	.	.	.	.	.
8r	.	8r	.	8r	.	8r	.
(8a\L	ff	[4E/ 4c/	.	[4cc\ [4aa\	.	[4aaa\	.
8cc\J	.	.	.	.	.	.	.
=222	=222	=222	=222	=222	=222	=222	=222
8b\L	.	4.E/] 4.c/	.	4.cc\] 4.aa\]	.	4.aaa\]	.
8cc\	.	.	.	.	.	.	.
8a\J)	.	.	.	.	.	.	.
8r	.	8r	.	8r	.	8r	.
(8a\L	.	[4D/ [4d/	.	[4a\ [4ff\	.	[4aaa\	.
8cc\J	.	.	.	.	.	.	.
=223	=223	=223	=223	=223	=223	=223	=223
8b\L	.	4.D/] 4.d/]	.	4.a\] 4.ff\]	.	4.aaa\]	.
8cc\	.	.	.	.	.	.	.
8a\J)	.	.	.	.	.	.	.
8r	.	8r	.	8r	.	8r	.
(8a\L	.	[4C/ [4c/	.	[4ee\	.	[4aaa\	.
8cc\J	.	.	.	.	.	.	.
=224	=224	=224	=224	=224	=224	=224	=224
8b\L	.	4.C/] 4.c/]	.	4.ee\]	.	4.aaa\]	.
8cc\	.	.	.	.	.	.	.
8a\J)	.	.	.	.	.	.	.
8r	.	8r	.	8r	.	8r	.
4r	.	4r	.	4r	.	(4gg#\	p
=225	=225	=225	=225	=225	=225	=225	=225
*clefF4	*clefF4	*	*	*	*	*	*
8r	.	2.r	.	2.r	.	2.aa\)	.
(8CC/L	p	.	.	.	.	.	.
8EE/	.	.	.	.	.	.	.
8AA/	.	.	.	.	.	.	.
8BB/	.	.	.	.	.	.	.
8C/J	.	.	.	.	.	.	.
=226	=226	=226	=226	=226	=226	=226	=226
8C#\L	.	4r	.	2.r	.	(4ff\	.
8D\	.	.	.	.	.	.	.
8E\	.	4r	.	.	.	4dd\)	.
8F\	.	.	.	.	.	.	.
8A\	.	(8c#\L	p	.	.	4b-'\	.
8B-\J)	.	8d\J	.	.	.	.	.
=227	=227	=227	=227	=227	=227	=227	=227
4E\	.	8Bn\L	.	4r	.	(2.a/	.
.	.	8cn\	.	.	.	.	.
4r	.	8d#\	.	4r	.	.	.
.	.	8e\	.	.	.	.	.
4r	.	8g#\	.	(8b\L	p	.	.
.	.	8a\J	.	8cc\J	.	.	.
=228	=228	=228	=228	=228	=228	=228	=228
4r	.	8a#\L	.	8cc#\L	.	4g#/	.
.	.	8b\	.	8dd\	.	.	.
4r	.	8an\	.	8ccn\	.	4ee\)	.
.	.	8g#\J)	ff	8b\J)	ff	.	.
*clefC4	*clefG2	*	*	*	*	*	*
(8a\L	ff	[4F/	.	[4c/ [4a/	.	[4aa\	ff
8cc\J	.	.	.	.	.	.	.
=229	=229	=229	=229	=229	=229	=229	=229
8bn\L	.	4.F/]	.	4.c/] 4.a/]	.	4.aa\]	.
8cc\	.	.	.	.	.	.	.
8a\J)	.	.	.	.	.	.	.
8r	.	8r	.	8r	.	8r	.
(8a\L	ff	[4E/	.	[4cc\ [4aa\	.	[4ccc\	.
8cc\J	.	.	.	.	.	.	.
=230	=230	=230	=230	=230	=230	=230	=230
8b\L	.	4.E/]	.	4.cc\] 4.aa\]	.	4.ccc\]	.
8cc\	.	.	.	.	.	.	.
8a\J)	.	.	.	.	.	.	.
8r	.	8r	.	8r	.	8r	.
(8a\L	.	[4D/ [4d/	.	[4a\ [4ff\	.	[4fff\	.
8cc\J	.	.	.	.	.	.	.
=231	=231	=231	=231	=231	=231	=231	=231
8b\L	.	4.D/] 4.d/]	.	4.a\] 4.ff\]	.	4.fff\]	.
8cc\	.	.	.	.	.	.	.
8a\J)	.	.	.	.	.	.	.
8r	.	8r	.	8r	.	8r	.
(8a\L	.	[4C/ [4c/	.	[4a\ [4ee\	.	[4aaa\	f
8cc\J	.	.	.	.	.	.	.
=232	=232	=232	=232	=232	=232	=232	=232
8b\L	.	4.C/] 4.c/]	.	4.a\] 4.ee\]	.	4.aaa\]	.
8cc\	.	.	.	.	.	.	.
8a\J)	.	.	.	.	.	.	.
8r	.	8r	.	8r	.	8r	.
*clefF4	*clefF4	*	*	*	*	*	*
[4FF/	p	4r	.	4r	.	(4aa\	p
=233	=233	=233	=233	=233	=233	=233	=233
(8FF/L]	.	2.r	.	2.r	.	2.aaa\)	.
8AA/	.	.	.	.	.	.	.
8BB/	.	.	.	.	.	.	.
8C/	.	.	.	.	.	.	.
8E/	.	.	.	.	.	.	.
8F/J	.	.	.	.	.	.	.
=234	=234	=234	=234	=234	=234	=234	=234
8A\L	.	(8c#\L	p	4r	.	(4fff\	.
8B-\J)	.	8d\	.	.	.	.	.
4r	.	8e\	.	4r	.	4ddd\)	.
.	.	8f\	.	.	.	.	.
4r	.	8a\	.	(8cc#\L	.	4bb-'\	.
.	.	8b-\J)	.	8dd\J)	.	.	.
=235	=235	=235	=235	=235	=235	=235	=235
(8BBn\L	.	2.b-\	.	2.bb-\	.	(8d#/L	.
8C\	.	.	.	.	.	8e/	.
8D#\	.	.	.	.	.	8f#/	.
8E\	.	.	.	.	.	8gn/	.
8F#\	.	.	.	.	.	8a/	.
8G\J	.	.	.	.	.	8b-/J	.
=236	=236	=236	=236	=236	=236	=236	=236
*clefC4	*clefC4	*	*	*	*	*	*
8B\L	.	(4g\	.	(4gg\	.	8dd#\L	.
8c\	.	.	.	.	.	8ee\	.
8d#\	.	4e\)	.	4ee\)	.	8ff#\	.
8e\	.	.	.	.	.	8ggn\	.
8f#\	.	4cn'\	.	4ccn'\	.	8aa\	.
8g\J)	.	.	.	.	.	8bb-\J)	.
=237	=237	=237	=237	=237	=237	=237	=237
*clefF4	*clefF4	*	*	*	*	*	*
(8CC/L	.	(8E/L	.	2.r	.	(2.ccc\	.
8DD/	<	8F/	<	.	.	.	.
8EE/	.	8G/	.	.	.	.	.
8CC/	.	8E/	.	.	.	.	.
8DD/	.	8F/	.	.	.	.	.
8EE/J	.	8G/J	.	.	.	.	.
=238	=238	=238	=238	=238	=238	=238	=238
8FFn/L	.	8A/L	.	[2.cc\	.	4aa\	<
8GG/	.	8B-/	.	.	.	.	.
8AA/	.	8c/	.	.	.	4ffn\)	.
8FF/	.	8A/	.	.	.	.	.
8GG/	.	8B-/)	.	.	.	4ee'\	.
8AA/J)	.	8c/J	.	.	.	.	.
=239	=239	=239	=239	=239	=239	=239	=239
(8BB-/L	>	(8d/L	.	(8cc/L]	<	(4ddn\	.
8C/	.	8e/	>	8b-/	>	.	.
8D/	.	8f/	.	8a/	.	4b-\	>
8BB-/	.	8d/	.	[8g/	.	.	.
8BBn/	.	8F/	.	8g/]	.	4a/	.
[8C/J	.	8c/J	.	[8f/J	.	.	.
=240	=240	=240	=240	=240	=240	=240	=240
2C/])	.	4B-/	.	8f/L]	.	4g/	.
.	.	.	.	8e/	.	.	.
.	.	4E/	.	8d/	.	4cc\	.
.	.	.	.	8c/J	.	.	.
[4C/	.	[4G/)	.	[4B-/)	.	4e/	.
=241	=241	=241	=241	=241	=241	=241	=241
2C/]	p	(4G/]	p	(4B-/]	.	4g/	p
.	.	4F/)	.	4A/)	p	4f/)	.
[4C/	.	[4a\	.	(8cc\L	.	(4ddd\	.
.	.	.	.	8ff\J)	.	.	.
=242	=242	=242	=242	=242	=242	=242	=242
2C/]	.	(8a\L]	.	(8ff\L	.	4bbn\	.
.	.	8g\	.	8ee\	.	.	.
.	.	8f\	.	8dd\	.	4ccc\	.
.	.	8e\J	.	8cc\J	.	.	.
[4c\	.	4g\)	.	[4b-\)	.	4ee\	.
=243	=243	=243	=243	=243	=243	=243	=243
2c\]	.	(4e\	.	(4b-\]	.	4gg\	.
.	.	4f\)	.	4a/)	.	4ff\)	.
(4D\	pp	4r	.	4r	.	4r	.
=244	=244	=244	=244	=244	=244	=244	=244
4BB/	.	4r	.	2.r	.	2.r	.
4C/	.	4r	.	.	.	.	.
4EE/	.	(4g\	pp	.	.	.	.
=245	=245	=245	=245	=245	=245	=245	=245
4GG/	.	4e\	.	2.r	.	2.r	.
4FF/	.	4f\	.	.	.	.	.
4D/	.	[4A/	.	.	.	.	.
=246	=246	=246	=246	=246	=246	=246	=246
4GG/	.	4A/]	.	2.r	.	2.r	.
4F\	.	4B-/	.	.	.	.	.
4E\	.	[4Bn/	.	.	.	.	.
=247	=247	=247	=247	=247	=247	=247	=247
4G\	.	4B/]	.	4r	.	2.r	.
4AA/)	.	4c/)	.	4r	.	.	.
(4F\	.	(4C/	.	(4a/	.	.	.
=248	=248	=248	=248	=248	=248	=248	=248
4C/	pp	4E-/	pp	4f#/	pp	2.r	.
4BB/	.	4D/	.	4g/	.	.	.
[4F\	.	[4G/)	.	4Bn/	.	.	.
=249	=249	=249	=249	=249	=249	=249	=249
4F\]	.	(4G/]	.	4d/	.	2.r	.
4E\	.	4g\	.	4c/	.	.	.
[4F\	.	4c\	.	4a/	.	.	.
=250	=250	=250	=250	=250	=250	=250	=250
4F\]	.	4c\	.	4d/	.	2.r	.
4F#\	.	4a\	.	4cc\	.	.	.
[4G\	.	4d\	.	4b\	.	.	.
=251	=251	=251	=251	=251	=251	=251	=251
4G\]	.	4f\	.	4dd\	.	4r	.
4c\)	.	4en\)	.	4cc\)	.	4r	.
([4GG/	pp	(4B/	.	(4ffn\	.	(4ddd\	pp
=252	=252	=252	=252	=252	=252	=252	=252
4GG/]	.	4f\	.	4dd\	pp	4bbn\	.
4C/)	.	4e\	.	4g/	.	4ccc\	.
4r	.	4g\	.	[4b-\	.	4ee\	.
=253	=253	=253	=253	=253	=253	=253	=253
2.r	.	4e\	.	4b-\]	.	4gg\	.
.	.	4f\	.	4a/)	.	4ff\	pp
.	.	[4B-/	.	([4ff\	.	4ddd\	.
=254	=254	=254	=254	=254	=254	=254	=254
4r	.	4B-/]	.	4ff\]	.	4gg\	.
4r	.	4Bn/	.	4dd\	.	4fff\	.
(4G\	pp	4c/	.	4g/	.	4eee\	.
=255	=255	=255	=255	=255	=255	=255	=255
4E\	.	4G/)	.	4b-/	.	4ggg\	.
4F\)	.	4c/	.	4a/)	.	4aa\)	.
([4DD/	.	4r	.	(4a/	.	([4fff\	.
=256	=256	=256	=256	=256	=256	=256	=256
4DD/]	.	4r	.	4g#/	.	4fff\]	.
4CC#/)	.	4r	.	4a/	.	4eee\)	.
([4AA/	.	(4e\	.	4c/	.	(4ee\	.
=257	=257	=257	=257	=257	=257	=257	=257
4AA/]	.	4cc#\	.	4e/	.	4gg\	.
4D/)	.	4dd\)	.	4d/)	.	4ff\)	.
(4B\	.	(4g\	.	(4d/	.	4r	.
=258	=258	=258	=258	=258	=258	=258	=258
4cn\	.	4f#\	.	4e-/	.	2.r	.
4B\)	.	4g\)	.	4d/)	.	.	.
(4GG/	.	([4D/	.	([4Bn/	.	.	.
=259	=259	=259	=259	=259	=259	=259	=259
4FF#/	.	8D/L]	.	8B/L]	.	4r	.
.	.	8Fn/J	.	8d/J	.	.	.
4GG/)	.	4E/)	.	4cn/)	.	4r	.
[4GG/	.	(4E/	.	([4c/	.	(4gg\	pp
=260	=260	=260	=260	=260	=260	=260	=260
2GG/]	.	4E-/	.	4c/]	.	4ff#\	.
.	.	4D/	.	4B/	.	4gg\)	.
*clefC4	*clefC4	*	*	*	*	*	*
(4g\	.	4G/	.	[4d/	.	([4bn\	.
=261	=261	=261	=261	=261	=261	=261	=261
4f#\	.	4F#/	.	8d/L]	.	8b\L]	.
.	.	.	.	8f/J	.	8dd\J	.
4g\)	.	4G/)	.	4e/)	.	4cc\)	.
4r	.	4r	.	(4cc\	.	(4eee\	.
=262	=262	=262	=262	=262	=262	=262	=262
4r	pp	4r	pp	4b\	pp	4ddd#\	pp
*clefF4	*clefF4	*	*	*	*	*	*
4r	.	(4E/	.	4cc\	.	4eee\	.
(4E\	.	[4d\	.	4b\	.	4gg#\	.
=263	=263	=263	=263	=263	=263	=263	=263
4E\	.	4d\]	.	4g#/	.	4bb\	.
4Fn\	.	4c\	.	4a/	.	4aa\)	.
4E\	.	[4a\	.	4cc\)	.	(4aa\	.
=264	=264	=264	=264	=264	=264	=264	=264
4D#\	.	4a\]	.	2.b\	.	4.bb\	.
4E\	.	4g#\	.	.	.	.	.
.	.	.	.	.	.	8ee\L	.
[4GG#/	.	[4e\	.	.	.	8ddd\)	.
.	.	.	.	.	.	8bb'\J	.
=265	=265	=265	=265	=265	=265	=265	=265
4GG#/]	.	4e\]	.	4cc\	.	(4.ccc\	.
4AA/	.	4c\)	.	(4e/	.	.	.
.	.	.	.	.	.	8ee\L	.
4C/)	.	(4c\	.	[4A/	.	8fff\)	.
.	.	.	.	.	.	8ccc'\J	.
=266	=266	=266	=266	=266	=266	=266	=266
4r	.	4.B/	.	4A/]	.	(4ddd#\	.
4EE/	.	.	.	4G#/)	.	4eee\	.
.	.	8E/L	.	.	.	.	.
4E\	.	8d/)	.	(8b/L	.	4gg#\	.
.	.	([8B/J	.	8g#/J)	.	.	.
=267	=267	=267	=267	=267	=267	=267	=267
4r	.	4B/]	.	(4.c/	.	4bb\	.
4E\	.	4A/)	.	.	.	4cc\	.
.	.	.	.	8A/L	.	.	.
4AA/	.	4r	.	8e/)	.	4aa\	.
.	.	.	.	[8c/J	.	.	.
=268	=268	=268	=268	=268	=268	=268	=268
4r	.	(4.f\	.	(4c/]	.	4dd\	.
4GGn/	.	.	.	8B/)	.	4ccc\	.
.	.	8Gn\L	.	8r	.	.	.
4G\	.	8f\)	.	(8dd\L	.	4bb\	.
.	.	[8d\J	.	8b\J)	.	.	.
=269	=269	=269	=269	=269	=269	=269	=269
4r	.	4d\]	.	(4.cc\	.	4ddd\	.
4G\	.	4c\	.	.	.	4ee\	.
.	.	.	.	8gn\L	.	.	.
4C/	.	4r	.	8ee\)	.	4ccc\)	.
.	.	.	.	8cc\J	.	.	.
=270	=270	=270	=270	=270	=270	=270	=270
4r	.	(4.d\	.	2.r	.	(4ff\	.
4BB/	.	.	.	.	.	4eee\	.
.	.	8G\L	.	.	.	.	.
4G\	.	8f\)	.	.	.	4eee\	.
.	.	8d\J	.	.	.	.	.
=271	=271	=271	=271	=271	=271	=271	=271
4r	.	4r	.	(4.g/	.	4fff\	.
4G\	.	(8e/L	.	.	.	4ee\	.
.	.	8G/	.	8e/L	.	.	.
4C/	.	8e/)	.	8cc/)	.	4eee\)	.
.	.	8c/J	.	8g/J	.	.	.
=272	=272	=272	=272	=272	=272	=272	=272
4r	.	4r	.	(4.g/	.	(4fff\	.
4G\	.	(8e\L	.	.	.	4ee\	.
.	.	8G\	.	8e/L	.	.	.
4C/	.	8e\)	.	8cc/)	.	4eee\)	.
.	.	8c\J	.	8g/J	.	.	.
=273	=273	=273	=273	=273	=273	=273	=273
4r	.	(4.dd\	.	2.r	.	(4fff\	.
4BB/	.	.	.	.	.	4ee\	.
.	.	8b\L	.	.	.	.	.
4G#\	.	8dd\)	.	.	.	4eee\)	.
.	.	8e\J	.	.	.	.	.
=274	=274	=274	=274	=274	=274	=274	=274
4r	.	2.r	.	(4.ccc\	.	(4fff\	.
4A\	.	.	.	.	.	4ee\	.
.	.	.	.	8ee\L	.	.	.
4AA/	.	.	.	8ccc\)	.	4eee\)	.
.	.	.	.	8aa\J	.	.	.
=275	=275	=275	=275	=275	=275	=275	=275
4r	.	(4.d/	.	2.r	.	(4fff\	.
4G#\	.	.	.	.	.	4ee\	.
.	.	8B/L	.	.	.	.	.
4GG#/	.	8d/)	.	.	.	4eee\)	.
.	.	8E/J	.	.	.	.	.
=276	=276	=276	=276	=276	=276	=276	=276
(4.GG#/	.	2.r	.	(4.B/	.	(8fff\L	.
.	.	.	.	.	.	8ee\	.
.	.	.	.	.	.	8eee\)	.
8EE/L	.	.	.	8G#/L	.	8eee'\	.
8BB/)	.	.	.	8d/)	.	(8eee\	.
8GG#'/J	.	.	.	8B'/J	.	8ee\J)	.
=277	=277	=277	=277	=277	=277	=277	=277
(8D\L	.	4r	.	(8B/L	.	(8fff\L	.
8BB\	.	.	.	8G#/	.	8ee\	.
8G#\J)	.	8r	.	8d/J)	.	8eee\)	.
8r	.	(8D/L	.	8r	.	8eee'\	.
4r	.	8B/	.	4r	.	(8eee\	.
.	.	8G#/J)	.	.	.	8ee\J)	.
=278	=278	=278	=278	=278	=278	=278	=278
2.r	.	4r	.	(8d/L	.	(8fff\L	.
.	.	.	.	8B/	.	8ee\	.
.	.	8r	.	8g#/J)	.	8eee\)	.
.	.	(8d\L	.	8r	.	8eee'\	.
.	.	8b\	.	4r	.	(8eee\	.
.	.	8g#\J)	.	.	.	8ee\J)	.
=279	=279	=279	=279	=279	=279	=279	=279
4r	.	(8b\L	.	(8dd\L	.	(8fff\L	.
.	.	8g#\	.	8b\	.	8ee\	.
*clefC4	*clefG2	*	*	*	*	*	*
8r	.	8dd\J)	.	8bb\J)	.	8eee\)	.
(8g#\L	.	(8dd\L	.	(8bb\L	.	8eee'\	.
8a\	.	8cc\	.	8aa\	.	(8eee\	.
8b\J)	.	8dd\J)	.	8gg#\J)	.	8ee\J)	.
=280	=280	=280	=280	=280	=280	=280	=280
(4.a\	f	8cc\L	f	8aa\L	f	(8fff\L	f
.	.	8a\J	.	8cc\J	.	8ee\	.
.	.	8A/L	.	8c/L	.	8eee\)	.
8e\L	.	8A/	.	8c/	.	8eee'\	.
8cc\)	.	8A/	.	8c/	.	(8eee\	.
8a'\J	.	8A/J	.	8c/J	.	8ee\J)	.
=281	=281	=281	=281	=281	=281	=281	=281
(2a\	.	8B\L	f	8d/L	.	(8fff\L	.
.	.	8b\J	.	8dd/J	.	8ee\	.
.	.	8B/L	.	8d/L	.	8eee\)	.
.	.	8B/	.	8d/	.	8eee'\	.
4g#\)	.	8B/	.	8d/	.	8eee\	.
.	.	8B/J	.	8d/J	.	8ee\J	.
=282	=282	=282	=282	=282	=282	=282	=282
(4.a\	.	8c/L	.	8e/L	.	(8fff\L	.
.	.	8A/J	.	8c/J	.	8ee\	.
.	.	8F/L	.	8A/L	.	8eee\)	.
8b\L	.	8F/	.	8A/	.	8aaa\	.
8cc\	.	8F/	.	8A/	.	8aaa\	.
8dd\J	.	8F/J	.	8A/J	.	8aaa\J	.
=283	=283	=283	=283	=283	=283	=283	=283
4ee'\)	.	8E/L	.	8B/L	.	(4aaa\	.
.	.	8E/	.	8B/	.	.	.
(4ee'\	.	8E/	.	8B/	.	4ggg#\)	.
.	.	8E/	.	8B/J	.	.	.
4ee'\)	.	8E/	.	8e/L	.	4eee'\	.
.	.	8E/J	.	8e/J	.	.	.
=284	=284	=284	=284	=284	=284	=284	=284
2ee\	.	8C/L	.	8B-/L 8e/	.	2eee\	.
.	.	8C/	.	8B-/ 8e/	.	.	.
.	.	8C/	.	8B-/ 8e/	.	.	.
.	.	8C/J	.	8B-/ 8e/	.	.	.
(4ee\	.	8C/L 8G/	.	8B-/ 8e/	.	(4eee\	.
.	.	8C/J 8G/	.	8B-/J 8e/	.	.	.
=285	=285	=285	=285	=285	=285	=285	=285
4.ggn\	.	8F/L	.	8A/L 8f/	.	4.gggn\	.
.	.	8F/	.	8A/ 8f/	.	.	.
.	.	8F/	.	8A/ 8f/	.	.	.
8ff\L)	.	8F/	.	8A/ 8f/	.	8fff\L)	.
8ee'\	.	8F/	.	8A/ 8f/	.	8eee'\	.
8dd'\J	.	8F/J	.	8A/J 8f/	.	8ddd'\J	.
=286	=286	=286	=286	=286	=286	=286	=286
(2cc\	.	8G/L	.	8c/L 8e/	.	(2ccc\	.
.	.	8G/	.	8c/ 8e/	.	.	.
.	.	8G/	.	8c/ 8e/	.	.	.
.	.	8G/J	.	8c/J 8e/	.	.	.
8ee\L	.	8G/L	.	8Bn/L 8d/	.	8eee\L	.
8dd\J)	.	8G/J	.	8B/J 8d/	.	8ddd\J)	.
=287	=287	=287	=287	=287	=287	=287	=287
4dd\	.	8G/L	.	8B/L 8d/	.	4ddd\	.
.	.	8G/	.	8B/ 8gn/	.	.	.
4r	.	8G/	.	8B/ 8g/	.	4r	.
.	.	8G/J	.	8B/J 8g/	.	.	.
4r	.	8D/L 8A/	.	8d/L 8f/	.	4r	.
.	.	8D/J 8A/	.	8d/J 8f/	.	.	.
=288	=288	=288	=288	=288	=288	=288	=288
4r	.	8D/L 8A/	.	8d/L 8f/	.	4r	.
.	.	8D/ 8A/	.	8d/ 8f/	.	.	.
(4d\	.	8D/ 8A/	.	8d/ 8f/	.	(4ddd\	.
.	.	8D/ 8A/	.	8d/ 8f/	.	.	.
4f\)	.	8D/ 8A/	.	8d/ 8f/	.	4fff\)	.
.	.	8D/J 8A/	.	8d/J 8f/	.	.	.
=289	=289	=289	=289	=289	=289	=289	=289
2.a\	.	8C#/L	f	8A/L 8e/	.	2.aaa\	.
.	.	8C#/	.	8A/ 8e/	.	.	.
.	.	8C#/	.	8A/ 8e/	.	.	.
.	.	8C#/J	.	8A/ 8e/	.	.	.
.	.	8Cn/L	.	8A/ 8e/	.	.	.
.	.	8C/J	.	8A/J 8e/	.	.	.
=290	=290	=290	=290	=290	=290	=290	=290
4r	.	8E/L	.	8G/L	.	4r	.
.	.	8E/	.	8B/J 8g/	.	.	.
(4e\	.	8E/	.	8B/L 8g/	.	(4ee\	.
.	.	8E/	.	8B/ 8g/	.	.	.
4g\)	.	8E/	.	8B/ 8g/	.	4gg\)	.
.	.	8E/J	.	8B/J 8g/	.	.	.
=291	=291	=291	=291	=291	=291	=291	=291
2.b\	.	8D#/L	.	8B/L 8f#/	.	2.bb\	.
.	.	8D#/	.	8B/ 8f#/	.	.	.
.	.	8D#/	.	8B/ 8f#/	.	.	.
.	.	8D#/J	.	8B/J 8f#/	.	.	.
.	.	8Dn/L	.	8G#/L 8fn/	.	.	.
.	.	8D/J	.	8G#/J	.	.	.
=292	=292	=292	=292	=292	=292	=292	=292
4r	.	8C/L	.	8e/L	.	4r	.
.	.	8c/J	.	8e/J	.	.	.
(4a\	.	8A/L	.	8c/L 8e/	.	(4aa\	.
.	.	8A/	.	8c/ 8e/	.	.	.
4cc\)	.	8E/ 8A/	.	8c/ 8e/	.	4ccc\)	.
.	.	8E/J 8A/	.	8c/J 8e/	.	.	.
=293	=293	=293	=293	=293	=293	=293	=293
2ee\	.	8E/L 8G#/	.	8B/L 8e/	.	2eee\	.
.	.	8E/ 8G#/	.	8B/ 8e/	.	.	.
.	.	8E/ 8G#/	.	8B/ 8e/	.	.	.
.	.	8E/J 8G#/	.	8B/J 8e/	.	.	.
4ee\	.	8E/L 8A/	.	8c/L 8e/	.	4eee\	.
.	.	8E/J 8A/	.	8c/J 8e/	.	.	.
=294	=294	=294	=294	=294	=294	=294	=294
2ee\	>	8E/L 8G#/	>	8B/L 8e/	>	[2.eee\	>
.	.	8E/ 8G#/	.	8B/ 8e/	.	.	.
.	.	8E/ 8G#/	.	8B/ 8e/	.	.	.
.	.	8E/J 8G#/	.	8B/J 8e/	.	.	.
(8g#\L	p	8E/L 8G#/	p	8B/L 8e/	.	.	.
8a\J	.	8E/J 8G#/	.	8B/J 8e/	p	.	.
=295	=295	=295	=295	=295	=295	=295	=295
4.b\	.	2.E/ 2.G#/	.	2.B/ 2.e/	.	2.eee\_	p
8g#\L	.	.	.	.	.	.	.
8dd\	.	.	.	.	.	.	.
8b\J)	.	.	.	.	.	.	.
=296	=296	=296	=296	=296	=296	=296	=296
(4b\	.	[2.E/ [2.A/	.	[2.c#/ [2.e/	.	2.eee\_	.
8a\L	.	.	.	.	.	.	.
8g#\	.	.	.	.	.	.	.
8a\	.	.	.	.	.	.	.
8b\J)	.	.	.	.	.	.	.
=297	=297	=297	=297	=297	=297	=297	=297
(4.cc#\	.	2.E/] 2.A/]	.	2.c#/] 2.e/]	.	2.eee\]	.
8a\L	.	.	.	.	.	.	.
8ee\	.	.	.	.	.	.	.
8cc#\J)	.	.	.	.	.	.	.
=298	=298	=298	=298	=298	=298	=298	=298
*k[f#c#g#]	*k[f#c#g#]	*k[f#c#g#]	*k[f#c#g#]	*k[f#c#g#]	*k[f#c#g#]	*k[f#c#g#]	*k[f#c#g#]
(4cc#\	.	2E/ 2B/	.	2d/	.	(2.eee\	.
8b\L	.	.	.	.	.	.	.
8a#\	.	.	.	.	.	.	.
8b\	.	4E/ 4A/	.	4c#/ 4e/	.	.	.
8cc#\J)	.	.	.	.	.	.	.
=299	=299	=299	=299	=299	=299	=299	=299
2dd\	.	(4E/	.	(4B/	.	4gg#\	.
.	.	4F#/	.	4b/	.	4aa\	.
(4dd\	.	4G#/	.	[4e/)	.	4bb\	.
=300	=300	=300	=300	=300	=300	=300	=300
2cc#\	<	2A/	.	(4e/]	.	2ccc#\	.
.	.	.	.	4ee\	<	.	.
4b\	.	4G#/	<	4e/)	.	[4eee\	<
=301	=301	=301	=301	=301	=301	=301	=301
2a\	.	2F#/)	.	(4A/	.	2eee\]	.
.	.	.	.	4a/	.	.	.
4b\	.	(4F#/	.	[4A/)	.	4ddd#\	.
=302	=302	=302	=302	=302	=302	=302	=302
2a\	.	2E/)	.	(4A/]	.	4fff#\	.
.	.	.	.	2B/)	>	8eee\L)	>
.	.	.	.	.	.	(8ee\	.
4g#\)	>	[4E/	>	.	.	8gg#\	.
.	.	.	.	.	.	8aa\J)	.
=303	=303	=303	=303	=303	=303	=303	=303
(2.g#\	.	(4E/]	.	(2G#/	.	(8aa#\L	.
.	.	.	.	.	.	8bb\J)	.
.	.	4d\	.	.	.	(8bb\L	.
.	.	.	.	.	.	8gg#\	.
.	.	[4E/)	.	4B/	.	8ddd\	.
.	.	.	.	.	.	8bb\J)	.
=304	=304	=304	=304	=304	=304	=304	=304
[2.a\	.	(4E/]	.	4c#/	.	(8bb\L	.
.	.	.	.	.	.	8aan\J)	.
.	.	4c#/	.	4A/	.	(8aa\L	.
.	.	.	.	.	.	8gg#\	.
.	.	[4E/)	.	[4c#/)	.	8aa\	.
.	.	.	.	.	.	8bb\J)	.
=305	=305	=305	=305	=305	=305	=305	=305
2a\]	.	(4E/]	.	(4c#/]	.	(8bb\L	.
.	.	.	.	.	.	8ccc#\J)	.
.	.	4c#/	.	4A/	.	(8ccc#\L	.
.	.	.	.	.	.	8aa\	.
4a#\	.	[4E/)	.	4c#/)	.	8eee\	.
.	.	.	.	.	.	8ccc#\J)	.
=306	=306	=306	=306	=306	=306	=306	=306
[4b\	.	(4E/]	.	[4d/	.	(8ccc#\L	.
.	.	.	.	.	.	8bb\J)	.
8b\L]	.	4d\	.	(8d/L]	.	(8bb\L	.
8a#\	.	.	.	8c#/	.	8aa#\	.
8b\	.	[4E/)	.	8B/	.	8bb\	.
8cc#\J)	.	.	.	8A/J	.	8ccc#\J)	.
=307	=307	=307	=307	=307	=307	=307	=307
2dd\	.	(4E/]	.	4G#/	.	2ddd\	.
.	.	4F#/	.	4A/	.	.	.
(4dd\	.	[4E/)	.	4G#/	.	(4ddd\	<
=308	=308	=308	=308	=308	=308	=308	=308
2cc#\	<	(4E/]	<	4A/	<	2ccc#\	.
.	.	4A/	.	4c#/	.	.	.
4b\	.	4G#/	.	[4e/)	.	4bb\	.
=309	=309	=309	=309	=309	=309	=309	=309
2an\	.	2F#/)	.	(4e/]	.	2aan\	.
.	.	.	.	[2d#/)	.	.	.
4b\	.	(4F#/	.	.	.	4bb\	.
=310	=310	=310	=310	=310	=310	=310	=310
2a\	>	2E/	>	(4d#/]	.	2aa\	>
.	.	.	.	4e/	>	.	.
4g#\)	.	4e\)	.	[4B/)	.	4gg#\)	.
=311	=311	=311	=311	=311	=311	=311	=311
(2gn\	<	2E/	.	(4B/]	.	(2ggn\	<
.	.	.	.	4dn/	<	.	.
4a\	.	[4E/	<	4c#/	.	4aa\	.
=312	=312	=312	=312	=312	=312	=312	=312
2gn\	>	(4E/]	>	4c#/	>	2ggn\	>
.	.	4D/)	.	4d/	.	.	.
4f#\)	.	[4D/	.	[4A/)	.	4ff#\)	.
=313	=313	=313	=313	=313	=313	=313	=313
2ff#\	.	(4D/]	.	2A/]	.	2fff#\	.
.	.	4C#/)	.	.	.	.	.
(4ff#\	.	[4D/	.	[4A/	.	(4fff#\	.
=314	=314	=314	=314	=314	=314	=314	=314
2ee\	.	4D/]	.	2A/]	.	2eee\	<
.	.	(4C#/	.	.	.	.	.
4ff#\	<	4D/	<	[4a/	<	4fff#\	.
=315	=315	=315	=315	=315	=315	=315	=315
2cc#\	.	4D/	.	2a/]	.	2ccc#\	.
.	.	4E/	.	.	.	.	.
4dd\)	.	4E/	.	4B/ 4g#/	.	4ddd\)	.
=316	=316	=316	=316	=316	=316	=316	=316
*	*	*	*	*^	*	*	*
(4dd\	.	4F#/	.	(4a/	2.A\	>	(4ddd\	>
4cc#\	>	4Gn/	>	4e/	.	.	4ccc#\	.
8dd\L	.	8F#/L)	.	8f#/L	.	.	8ddd\L	.
8ee\J)	.	&([8E/J&)	.	8gn/J)	.	.	8eee\J)	.
*	*	*	*	*v	*v	*	*	*
=317	=317	=317	=317	=317	=317	=317	=317
2ff#\	.	(4E/]	.	(2A/	.	2fff#\	.
.	.	4D/)	.	.	.	.	.
(4ff#\	<	([4D/	<	4a/	<	(4fff#\	<
=318	=318	=318	=318	=318	=318	=318	=318
2ee\	.	4D/]	.	2A/	.	2eee\	.
.	.	4C#/	.	.	.	.	.
(4ff#\)	.	4D/	.	4a/	.	4fff#\	.
=319	=319	=319	=319	=319	=319	=319	=319
2cc#\	.	4D#/	>	4A/	>	2ccc#\	>
.	.	4E/)	.	4a/	.	.	.
8ee\L	>	4E/	.	4B/) 4g#/	.	8eee\L	.
8dd\J)	.	.	.	.	.	8ddd\J)	.
=320	=320	=320	=320	=320	=320	=320	=320
4r	.	4r	.	4r	.	4r	.
4cc#\	pp	(8E/L	pp	4A/ 4e/	pp	4ccc#\	pp
.	.	8A/	.	.	.	.	.
4r	.	8G#/	.	4r	.	4r	.
.	.	8A/J	.	.	.	.	.
=321	=321	=321	=321	=321	=321	=321	=321
*clefC4	*clefC4	*	*	*	*	*	*
2.r	.	8B\L	.	2.r	.	2.r	.
.	.	8c#\	.	.	.	.	.
.	.	8d\	.	.	.	.	.
.	.	8e\	.	.	.	.	.
.	.	8f#\	.	.	.	.	.
.	.	8e\J)	.	.	.	.	.
=322	=322	=322	=322	=322	=322	=322	=322
4r	.	(4e\	.	4r	.	4r	.
(8e\L	pp	2a\)	.	(8gg#\L	pp	4A/ 4e/	.
8f#\	.	.	.	8aa\	.	.	.
8e\	.	.	.	8gg#\	.	4r	.
8d\J)	.	.	.	8ff#\J)	.	.	.
=323	=323	=323	=323	=323	=323	=323	=323
(8d\L	.	2.r	.	(8ff#\L	.	2.r	.
8c#\	.	.	.	8ee\	.	.	.
8d\	.	.	.	8ff#\	.	.	.
8G#\	.	.	.	8b\	.	.	.
8A\	.	.	.	8cc#\	.	.	.
8B\J)	.	.	.	8dd\J)	.	.	.
=324	=324	=324	=324	=324	=324	=324	=324
(4A\	.	4r	.	(4cc#\	.	4r	.
2c#\)	.	4A\ 4e\	.	2ee\)	.	(8ee\L	.
.	.	.	.	.	.	8aa\	.
.	.	4r	.	.	.	8gg#\	.
.	.	.	.	.	.	8aa\J	.
=325	=325	=325	=325	=325	=325	=325	=325
*clefF4	*clefF4	*	*	*	*	*	*
4r	.	2.r	.	2.r	.	8bb\L	.
.	.	.	.	.	.	8ccc#\	.
8r	.	.	.	.	.	8ddd\	.
(8AA/L	pp	.	.	.	.	8eee\	.
8GG#/	.	.	.	.	.	8fff#\	.
8AA/J	.	.	.	.	.	8eee\J)	.
=326	=326	=326	=326	=326	=326	=326	=326
8BB/L	.	4r	.	4r	.	(4eee\	.
8C#/J)	.	.	.	.	.	.	.
(8C#/L	.	(8e\L	.	(8gg#\L	.	4aaa\	.
8BB/	.	8f#\	.	8aa\	.	.	.
8C#/	.	8e\	.	8gg#\	.	8ggg#\L	.
8D/J)	.	8d\J)	.	8ff#\J)	.	8fff#\J)	.
=327	=327	=327	=327	=327	=327	=327	=327
(8D\L	.	(8d/L	.	(8ff#\L	.	(8fff#\L	.
8E\J)	.	8c#/	.	8ee\	.	8eee\	.
8E\L	.	8d/	.	8ff#\	.	8fff#\	.
8E\	.	8G#/	.	8b\	.	8bb\	.
8E\	.	8A/	.	8cc#\	.	8ccc#\	.
8E\J	.	8B/J)	.	8dd\J)	.	8ddd\J)	.
=328	=328	=328	=328	=328	=328	=328	=328
8A'\L	.	4E/	.	4cc#'\	.	4ccc#'\	.
8c#'\	.	.	.	.	.	.	.
8e'\	.	4A/	.	4cc#'\	.	4ccc#'\	.
8d'\	.	.	.	.	.	.	.
8c#'\	.	4r	.	4r	.	4r	.
8B'\J	.	.	.	.	.	.	.
=329	=329	=329	=329	=329	=329	=329	=329
8A'\L	.	4A'\ 4e'\	.	4cc#'\	.	4ccc#'\	.
8G#'\	.	.	.	.	.	.	.
8A'\	.	4A'\ 4e'\	.	4cc#'\	.	4ccc#'\	.
8Gn'\	.	.	.	.	.	.	.
8F#'\	.	4r	.	4r	.	4r	.
8E'\J	.	.	.	.	.	.	.
=330	=330	=330	=330	=330	=330	=330	=330
8D'\L	.	8A'/L	.	4f#'/	.	4fff#'\	.
8C#'\	.	8c#'/	.	.	.	.	.
8D'\	.	8d'/	.	4ff#'\	.	4fff#'\	.
8C#'\	.	8c#'/	.	.	.	.	.
8BB'\	.	8B'/	.	4r	.	4r	.
8AA'\J	.	8A'/J	.	.	.	.	.
=331	=331	=331	=331	=331	=331	=331	=331
8GG#'/L	.	8G#'/L	.	4b'/	.	4eee'\	.
8D#'/	.	8d#'/	.	.	.	.	.
8E'/	.	8e'/	.	4g#'/ 4b'/	.	4eee'\	.
8Dn'/	.	8dn'/	.	.	.	.	.
8C#'/	.	8c#'/	.	4r	.	4r	.
8BB'/J	.	8B'/J	.	.	.	.	.
=332	=332	=332	=332	=332	=332	=332	=332
4C#'/	.	4E'/	.	8a'\L	.	8aa'\L	.
.	.	.	.	8cc#'\	.	8ccc#'\	.
4C#'/	.	4c#'/	.	8ee'\	.	8eee'\	.
.	.	.	.	8dd'\	.	8ddd'\	.
4r	.	4r	.	8cc#'\	.	8ccc#'\	.
.	.	.	.	8b'\J	.	8bb'\J	.
=333	=333	=333	=333	=333	=333	=333	=333
4F#'\	.	4c#'\	.	8a'/L	.	8aa'\L	.
.	.	.	.	8g#'/	.	8gg#'\	.
4F#'\	.	4c#'\	.	8a'/	.	8aa'\	.
.	.	.	.	8gn'/	.	8ggn'\	.
4r	.	4r	.	8f#'/	.	8ff#'\	.
.	.	.	.	8e'/J	.	8ee'\J	.
=334	=334	=334	=334	=334	=334	=334	=334
4BB'/	.	4B'\ 4f#'\	.	8d/L	.	8dd\L	.
.	.	.	.	8cc#/	.	8ccc#\	.
4BB'/	.	4B'\ 4f#'\	.	8dd/	.	8ddd\	.
.	.	.	.	8cc#/	.	8ccc#\	.
4r	.	4r	.	8b/	.	8bb\	.
.	.	.	.	8a/J	.	8aa\J	.
=335	=335	=335	=335	=335	=335	=335	=335
4E'\	.	4B'\ 4e'\	.	8g#/L	.	8gg#\L	.
.	.	.	.	8dd#/	.	8ddd#\	.
8E/L	.	8B/L 8e/	.	8ee/	.	8eee\	.
8EE/	.	8E/	.	8ddn/	.	8dddn\	.
8FF#/	.	8F#/	.	8cc#/	.	8ccc#\	.
8GG#/J	.	8G#/J	.	8b/J	.	8bb\J	.
=336	=336	=336	=336	=336	=336	=336	=336
(8AA/L	f	(8A/L	f	(8cc#/L	f	(4.aa\	f
8EE/	.	8E/	.	8e/	.	.	.
8C#/J)	.	8c#/J)	.	8a/J)	.	.	.
8r	.	(8c#/L	.	(8cc#/L	.	8ee\L	.
4r	.	8E/	.	8e/	.	8ccc#\)	.
.	.	8A/J)	.	8a/J)	.	8aa'\J	.
=337	=337	=337	=337	=337	=337	=337	=337
(8BB/L	.	(8B/L	.	(8dd/L	.	(4.bb\	.
8GG#/	.	8G#/	.	8g#/	.	.	.
8D/J)	.	8d/J)	.	8b/J)	.	.	.
8r	.	(8d/L	.	(8dd/L	.	8gg#\L	.
4r	.	8G#/	.	8g#/	.	8ddd\)	.
.	.	8B/J)	.	8b/J)	.	8bb'\J	.
=338	=338	=338	=338	=338	=338	=338	=338
(8C#/L	.	(8c#/L	.	(8ee\L	.	(4.ccc#\	.
8AA/	.	8A/	.	8a\	.	.	.
8E/J)	.	8e/J)	.	8cc#\J)	.	.	.
8r	.	(8e/L	.	(8ee\L	.	8aa\L	.
4r	.	8A/	.	8a\	.	8eee\)	.
.	.	8c#/J)	.	8cc#\J)	.	8ccc#'\J	.
=339	=339	=339	=339	=339	=339	=339	=339
(8D\L	.	(8d\L	.	(8fn/L	.	(4.ddd\	.
8BB\	.	8B\	.	8G#/	.	.	.
8Fn\J)	.	8fn\J)	.	8d/J)	.	.	.
(8G#\L	.	(8dd\L	.	(8ffn\L	.	8bb\L	.
8g#\	.	8b\)	.	8dd\	.	8fffn\)	.
8a\J)	.	8b\J	.	8ff\J)	.	8ddd'\J	.
=340	=340	=340	=340	=340	=340	=340	=340
*clefC4	*clefC4	*	*	*	*	*	*
4a'\	.	4cc#'\	.	4ee'\	.	4eee'\	.
4a'\	>	4cc#'\	>	4ee'\	>	4eee'\	>
4g#'\	.	4dd'\	.	4ee'\	.	4fffn'\	.
=341	=341	=341	=341	=341	=341	=341	=341
4a'\	.	4cc#'\	.	4ee'\	.	4eee'\	.
4a'\	.	4ee'\	.	4ccc#'\	.	4eee'\	.
4g#'\	.	4ee'\	.	4ddd'\	.	4fffn'\	.
=342	=342	=342	=342	=342	=342	=342	=342
4a'\	p	4ee'\	p	4ccc#'\	p	4eee'\	p
4a'\	.	4cc#'\	.	4ee'\	.	4eee'\	.
4g#'\	.	4dd'\	.	4ee'\	.	4fff#'\	.
=343	=343	=343	=343	=343	=343	=343	=343
4a'\	.	4cc#'\	.	4ee'\	.	4eee'\	.
4a'\	.	4ee\	.	4ccc#'\	.	4eee'\	.
4g#'\	.	4ee'\	.	4ddd'\	.	4fff#'\	.
=344	=344	=344	=344	=344	=344	=344	=344
4a\	pp	4ee\	pp	4ccc#\	pp	4eee\	pp
4r	.	4r	.	4r	.	4r	.
4r	.	4r	.	4r	.	4r	.
=345	=345	=345	=345	=345	=345	=345	=345
4a\	.	4cc#\	.	4A/	.	4aaa\	.
4r	.	4r	.	4r	.	4r	.
4r	.	4r	.	4r	.	4r	.
=346	=346	=346	=346	=346	=346	=346	=346
4f#\	.	[2.F#/	.	4f#/	.	4a/	.
4r	.	.	.	4r	.	4r	.
4r	.	.	.	4r	.	4r	.
=347	=347	=347	=347	=347	=347	=347	=347
*clefF4	*clefF4	*	*	*	*	*	*
4r	.	4F#/]	.	4r	.	4r	.
(4AA/	.	(4A/	.	2A/	.	(4a/	.
4FF#/)	<	4F#/)	<	.	.	4f#/)	<
=348	=348	=348	=348	=348	=348	=348	=348
4DD'/	.	4D'/	.	4A'/	<	4d'/	.
2DD#/	.	2D#/	.	2d#/	.	2d#/	.
=349	=349	=349	=349	=349	=349	=349	=349
4EE'/	f	4E'/	f	4e'/	f	4e'/	f
4E'\	.	4e'\	.	4ee'\	.	4ee'\	.
4r	.	4r	.	4r	.	4r	.
=350	=350	=350	=350	=350	=350	=350	=350
4AA'/	.	4A'/	.	4A'/	.	4a'/	.
4A'\	.	4a'\	.	4a'/	.	4aa'\	.
4r	.	4r	.	4r	.	4r	.
=351	=351	=351	=351	=351	=351	=351	=351
4E'\	.	4E'/	.	4e'/	.	4ee\	.
[2e\	.	[2e\	.	[2ee\	.	(4eee\	.
.	.	.	.	.	.	8gg#\L	.
.	.	.	.	.	.	8aa\J)	.
=352	=352	=352	=352	=352	=352	=352	=352
2e\]	.	2e\]	.	2ee\]	.	(8aa#\L	.
.	.	.	.	.	.	8bb\J)	.
.	.	.	.	.	.	(8bb\L	.
.	.	.	.	.	.	8gg#\	.
*clefC4	*clefG2	*	*	*	*	*	*
(8g#\L	.	(4e\ 4b\	.	(4g#\ [4ee\	.	8ddd\	.
8a\J	.	.	.	.	.	8bb\J)	.
=353	=353	=353	=353	=353	=353	=353	=353
4b\)	.	4e\) 4cc#\	.	4a\) 4ee\]	.	(8bb\L	.
.	.	.	.	.	.	8aa\J)	.
4r	.	[2e\ [2cc#\	.	[2a\ [2ee\	.	(8aa\L	.
.	.	.	.	.	.	8gg#\	.
(8a\L	.	.	.	.	.	8aa\	.
8b\J	.	.	.	.	.	8bb\J)	.
=354	=354	=354	=354	=354	=354	=354	=354
4cc#\)	.	4e\] 4cc#\]	.	4a\] 4ee\]	.	(8bb\L	.
.	.	.	.	.	.	8ccc#\J)	.
4r	.	[2e\ [2cc#\	.	[2a\ [2ee\	.	(8ccc#\L	.
.	.	.	.	.	.	8aa\	.
(8a\L	.	.	.	.	.	8eee\	.
8b\J	.	.	.	.	.	8ccc#\J)	.
=355	=355	=355	=355	=355	=355	=355	=355
4cc#\)	.	4e\] 4cc#\]	.	4a\] 4ee\]	.	(8ccc#\L	.
.	.	.	.	.	.	8bb\J)	.
4r	.	[2e\ [2b\	.	[2g#\ [2ee\	.	(8bb\L	.
.	.	.	.	.	.	8aa#\	.
(8b\L	.	.	.	.	.	8bb\	.
8cc#\J	.	.	.	.	.	8ccc#\J	.
=356	=356	=356	=356	=356	=356	=356	=356
2dd\)	.	8e\L] 8b\]	.	8g#\L] 8ee\]	.	2ddd\)	.
.	.	8E/	.	8g#\	.	.	.
.	.	8F#/	.	8a\	.	.	.
.	.	8E/	.	8g#\	.	.	.
(4dd\	<	8F#/	.	8a\	.	(4ddd\	.
.	.	8G#/J	<	8b\J	<	.	.
=357	=357	=357	=357	=357	=357	=357	=357
2cc#\	.	4A/	.	8e/L	.	2ccc#\	<
.	.	.	.	8f#/	.	.	.
.	.	4a\	.	8f#/	.	.	.
.	.	.	.	8e/	.	.	.
4b\	.	4G#/	.	8f#/	.	4bb\	.
.	.	.	.	8g#/J	.	.	.
=358	=358	=358	=358	=358	=358	=358	=358
2a\	.	4F#/	.	8d#/L	.	2aan\	.
.	.	.	.	8cc#/J	.	.	.
.	.	4f#\	.	8cc#\L	.	.	.
.	.	.	.	8b\	.	.	.
4b\	.	4F#/ 4A/	.	8cc#\	.	4bb\	.
.	.	.	.	8dd#\J	.	.	.
=359	=359	=359	=359	=359	=359	=359	=359
2a\	>	(8F#/L	>	(8dd#\L	>	2aa\	>
.	.	8E/J)	.	8ee\)	.	.	.
.	.	8E/L	.	8b'\	.	.	.
.	.	8E/	.	8a'\	.	.	.
4g#\)	.	8E/	.	8b'\	.	4gg#\)	.
.	.	8E/J	.	8e'\J	.	.	.
=360	=360	=360	=360	=360	=360	=360	=360
(2gn\	<	8E/L	<	8b\L	<	(2ggn\	<
.	.	8E/	.	8cc#\	.	.	.
.	.	8E/J	.	8cc#\	.	.	.
.	.	8D/L	.	8ddn\	.	.	.
4a\	.	8C#/	.	8dd#\	.	4aa\	.
.	.	8C#/J	.	8ee\J	.	.	.
=361	=361	=361	=361	=361	=361	=361	=361
2gn\	>	8C#/L	.	8ee\L	>	2ggn\	>
.	.	8C#/	>	8a\	.	.	.
.	.	8E/	.	8b\	.	.	.
.	.	8E/	.	8cc#\	.	.	.
4f#\)	.	8D/	.	8ddn\	.	4ff#\)	.
.	.	8D/J	.	8a\J	.	.	.
=362	=362	=362	=362	=362	=362	=362	=362
2ff#\	.	8D/L	.	8a\L	.	2fff#\	.
.	.	8D/	.	8b\	.	.	.
.	.	8C#/	.	8a\	<	.	.
.	.	8C#/	<	8aa\	.	.	.
(4ff#\	<	8D/	.	8gg#\	.	(4fff#\	<
.	.	8D/J	.	8aa\J	.	.	.
=363	=363	=363	=363	=363	=363	=363	=363
2ee\	.	8D/L	.	8a\L	.	2eee\	.
.	.	8D/	.	8b\	.	.	.
.	.	8C#/	.	8a\	.	.	.
.	.	8C#/	.	8aa\	.	.	.
4ff#\	.	8D/	.	8gg#\	.	4fff#\	.
.	.	8D/J	.	8aa\J	.	.	.
=364	=364	=364	=364	=364	=364	=364	=364
2cc#\	.	8D#/L	.	8aa\L	.	2ccc#\	.
.	.	8D#/	.	8a\	.	.	.
.	.	8E/	.	8a\	.	.	.
.	.	8E/	.	8b\	.	.	.
4dd\)	.	8E#/	.	8g#\	.	4ddd\)	.
.	.	8E#/J	.	8b\J	.	.	.
=365	=365	=365	=365	=365	=365	=365	=365
(4dd\	>	8E#/L	.	8b/L	>	(4ddd\	>
.	.	8F#/	>	8a/	.	.	.
4cc#\	.	8F#/	.	8a/	.	4ccc#\	.
.	.	8Gn/	.	8A/	.	.	.
8dd\L	.	8F#/	.	8a/	.	8ddd\L	.
8ee\J)	.	8En/J	.	8gn/J	.	8eee\J)	.
=366	=366	=366	=366	=366	=366	=366	=366
(2ff#\	.	8E/L	.	8f#\L	.	2fff#\	.
.	.	8D/	<	8ff#\	.	.	.
.	.	8D/	<	8g#\	.	.	.
.	.	8D/	.	8a\	.	.	.
4ff#\	<	8D/	.	8aa\	.	(4fff#\	<
.	.	8D/J	.	8a\J	.	.	.
=367	=367	=367	=367	=367	=367	=367	=367
2ee\	.	8D/L	.	8aa\L	.	2eee\	.
.	.	8C#/	.	8a\J	.	.	.
.	.	8C#/	.	8g#/L	.	.	.
.	.	8C#/	.	8a/	.	.	.
4ff#\	.	8D/	.	8a/	.	4fff#\	.
.	.	8D/J	.	8A/J	.	.	.
=368	=368	=368	=368	=368	=368	=368	=368
2cc#\	>	8D/L	>	8aa\L	>	2ccc#\	.
.	.	8D#/	.	8ff#\	.	.	.
.	.	8E/	.	8ee\	.	.	.
.	.	8E/	.	8cc#\	.	.	.
8ee\L	.	8E/	.	8g#\	.	8eee\L	>
8dd\J)	.	8E/J	.	8b\J	.	8ddd\J)	.
=369	=369	=369	=369	=369	=369	=369	=369
4r	.	4r	.	4r	.	4r	.
4cc#\	pp	8E/L	pp	8e/L	pp	4ccc#\	pp
.	.	(8A/	.	(8a/	.	.	.
4r	.	8G#/	.	8g#/	.	4r	.
.	.	8A/J	.	8a/J	.	.	.
=370	=370	=370	=370	=370	=370	=370	=370
2.r	.	8B\L	.	8b\L	.	2.r	.
.	.	8c#\	.	8cc#\	.	.	.
.	.	8d\	.	8dd\	.	.	.
.	.	8e\	.	8ee\	.	.	.
.	.	8f#\	.	8ff#\	.	.	.
.	.	8e\J)	.	8ee\J)	.	.	.
=371	=371	=371	=371	=371	=371	=371	=371
*clefC4	*clefC4	*	*	*	*	*	*
4r	.	(4e\	.	(4ee\	.	4r	.
(8g#\L	pp	2a\)	.	2aa\)	.	(8e/L	pp
8a\	.	.	.	.	.	8f#/	.
8g#\	.	.	.	.	.	8e/	.
8f#\J)	.	.	.	.	.	8d/J)	.
=372	=372	=372	=372	=372	=372	=372	=372
(8f#\L	.	2.r	.	2.r	.	(8d/L	.
8e\	.	.	.	.	.	8c#/	.
8f#\	.	.	.	.	.	8d/	.
8B\	.	.	.	.	.	8G#/	.
8c#\	.	.	.	.	.	8A/	.
8d\J)	.	.	.	.	.	8B/J	.
=373	=373	=373	=373	=373	=373	=373	=373
(4c#\	.	(4A/	.	4r	.	4A/)	.
2e\)	.	4c#/	.	(8e/L	.	(8ee\L	.
.	.	.	.	8a/	.	8aa\	.
.	.	4E/	.	8g#/	.	8gg#\	.
.	.	.	.	8a/J	.	8aa\J	.
=374	=374	=374	=374	=374	=374	=374	=374
*clefF4	*clefF4	*	*	*	*	*	*
4r	.	8D/L	.	8b\L	.	8bb\L	.
.	.	8A/	.	8cc#\	.	8ccc#\	.
8r	.	8G#/	.	8dd\	.	8ddd\	.
(8C#/L	.	8Gn/	.	8ee\	.	8eee\	.
8D/	.	8F#/	.	8ff#\	.	8fff#\	.
8E/J)	.	8G#/J)	.	8ee\J)	.	8eee\J)	.
=375	=375	=375	=375	=375	=375	=375	=375
(8EE/L	.	2A/	.	8cc#/L	.	(4eee\	.
8AA/	.	.	.	8c#/J	.	.	.
8GG#/	.	.	.	8cc#/L	.	4aaa\	.
8AA/J)	.	.	.	8cc#/	.	.	.
8BB/L	.	4A/	.	8d/	.	8ggg#\L	.
8BB/J	.	.	.	8dd/J	.	8fff#\J)	.
=376	=376	=376	=376	=376	=376	=376	=376
8C#/L	.	(8A/L	.	(8dd/L	.	(8fff#\L	.
8C#/J	.	8e/	.	8cc#/	.	8eee\	.
8D/L	.	8d/)	.	8b/)	.	8fff#\	.
8E/	.	(8d/	.	(8b/	.	8bb\	.
8E/	.	8c#/	.	8a/	.	8ccc#\	.
8EE'/J	.	8B/J)	.	8g#/J)	.	8ddd\J	.
=377	=377	=377	=377	=377	=377	=377	=377
8AA'/L	.	8A'/L	.	4a'/	.	4ccc#'\)	.
8C#'/	.	8c#'/	.	.	.	.	.
8E'/	.	8e'/	.	4a'/	.	4ccc#'\	.
8D'/	.	8d'/	.	.	.	.	.
8C#'/	.	8c#'/	.	4r	.	4r	.
8BB'/J	.	8B'/J	.	.	.	.	.
=378	=378	=378	=378	=378	=378	=378	=378
8AA'/L	.	8A'/L	.	4ee'\	.	4ccc#'\	.
8GG#'/	.	8G#'/	.	.	.	.	.
8AA'/	.	8A'/	.	4ee'\	.	4ccc#'\	.
8GGn'/	.	8Gn'/	.	.	.	.	.
8FF#'/	.	8F#'/	.	4r	.	4r	.
8EE'/J	.	8E'/J	.	.	.	.	.
=379	=379	=379	=379	=379	=379	=379	=379
8DD/L	.	8D/L	.	4f#'/	.	4fff#'\	.
8C#/	.	8c#/	.	.	.	.	.
8D/	.	8d/	.	4ff#'\	.	4fff#'\	.
8C#/	.	8c#/	.	.	.	.	.
8BB/	.	8B/	.	4r	.	4r	.
8AA/J	.	8A/J	.	.	.	.	.
=380	=380	=380	=380	=380	=380	=380	=380
8GG#/L	.	8G#/L	.	4b'\	.	4eee'\	.
8BB/	.	8B/	.	.	.	.	.
8E/	.	8e/	.	4b'\ 4gg#'\	.	4eee'\	.
8D/	.	8d/	.	.	.	.	.
8C#/	.	8c#/	.	4r	.	4r	.
8BB/J	.	8B/J	.	.	.	.	.
=381	=381	=381	=381	=381	=381	=381	=381
4C#'/	.	4c#'\	.	8a'/L	.	8aa'\L	.
.	.	.	.	8cc#'/	.	8ccc#'\	.
4C#'/	.	4c#'\	.	8ee'/	.	8eee'\	.
.	.	.	.	8dd'/	.	8ddd'\	.
4r	.	4r	.	8cc#'/	.	8ccc#'\	.
.	.	.	.	8b'/J	.	8bb'\J	.
=382	=382	=382	=382	=382	=382	=382	=382
4FF#'/	.	4F#'/ 4c#'/	.	8a'/L	.	8aa'\L	.
.	.	.	.	8g#'/	.	8gg#'\	.
4FF#'/	.	4F#'/ 4c#'/	.	8a'/	.	8aa'\	.
.	.	.	.	8gn'/	.	8ggn'\	.
4r	.	4r	.	8f#'/	.	8ff#'\	.
.	.	.	.	8e'/J	.	8ee'\J	.
=383	=383	=383	=383	=383	=383	=383	=383
4BB'/	.	4F#'/	.	8d/L	.	8dd\L	.
.	.	.	.	8cc#/	.	8ccc#\	.
4BB'/	.	4f#'\	.	8dd/	.	8ddd\	.
.	.	.	.	8cc#/	.	8ccc#\	.
4r	.	4r	.	8b/	.	8bb\	.
.	.	.	.	8a/J	.	8aa\J	.
=384	=384	=384	=384	=384	=384	=384	=384
4E'\	.	4B'\ 4e'\	.	8g#/L	.	8gg#\L	.
.	.	.	.	8b/	.	8bb\	.
4EE'/	.	4G#'\ 4e'\	.	8ee/	.	8eee\	.
.	.	.	.	8dd/	.	8ddd\	.
4r	.	4r	.	8cc#/	.	8ccc#\	.
.	.	.	.	8b/J	.	8bb\J	.
=385	=385	=385	=385	=385	=385	=385	=385
(8AA\L	f	(8e\L	f	(8cc#/L	f	(8aa\L	f
8A\	.	8c#\	.	8e/	.	8a\	.
8AA\J)	.	8e\J)	.	8cc#/J)	.	8aa\J)	.
8r	.	(8c#/L	.	(8e/L	.	(8ee\L	.
4a\	.	8A/	.	8c#/	.	8ccc#\	.
.	.	8c#/J)	.	8e/J)	.	8aa\J)	.
=386	=386	=386	=386	=386	=386	=386	=386
(8AA\L	.	(8d\L	.	(8fn/L	.	(8bb\L	.
8A\	.	8B\	.	8d/	.	8gg#\	.
8AA\J)	.	8d\J)	.	8f/J)	.	8bb\J)	.
8r	.	(8fn\L	.	(8dd\L	.	(8gg#\L	.
4a\	.	8d\	.	8b\	.	8ddd\	.
.	.	8f\J)	.	8dd\J)	.	8bb\J)	.
=387	=387	=387	=387	=387	=387	=387	=387
(8AA\L	.	(8cc#\L	.	(8ee\L	.	(8ccc#\L	.
8A\	.	8e\	.	8cc#\	.	8aa\	.
8AA\J)	.	8cc#\J)	.	8ee\J)	.	8ccc#\J)	.
8r	.	(8cc#\L	.	(8ee\L	.	(8aa\L	.
4a\	.	8e\	.	8cc#\	.	8eee\	.
.	.	8cc#\J)	.	8ee\J)	.	8ccc#\J)	.
=388	=388	=388	=388	=388	=388	=388	=388
(8AA\L	.	(8b\L	.	(8ffn\L	.	(8ddd\L	.
8A\	.	8g#\	.	8b\	.	8bb\	.
8AA\J)	.	8dd\J)	.	8g#\J)	.	8fffn\J)	.
8r	.	(8dd\L	.	(8ff\L	.	(8bb\L	.
4a\	.	8g#\	.	8b\	.	8fff\	.
.	.	8b\J)	.	8dd\J)	.	8ddd\J)	.
=389	=389	=389	=389	=389	=389	=389	=389
*clefC4	*clefC4	*	*	*	*	*	*
8a\L	>	8cc#\L	.	8ee\L	.	4eee'\	.
(8a\	.	(8cc#\	>	(8ee\	>	.	.
8g#\	.	8dd\	.	8ffn\	.	4eee'\	>
8a\	.	8cc#\	.	8ee\	.	.	.
8A\	.	8dd\	.	8ff\	.	4fffn'\	.
8a\J)	.	8cc#\J)	.	8ee\J)	.	.	.
=390	=390	=390	=390	=390	=390	=390	=390
(8g#\L	.	(8dd\L	.	(8ffn\L	.	4eee'\	.
8a\	.	8cc#\	.	8ee\	.	.	.
8A\	.	8dd\	.	8ff\	.	4eee'\	.
8a\	.	8cc#\	.	8ee\	.	.	.
8g#\	.	8dd\	.	8ff\	.	4fffn'\	.
8a\J)	.	8cc#\J)	.	8ee\J)	.	.	.
=391	=391	=391	=391	=391	=391	=391	=391
(8g#\L	p	(8dd\L	p	(8ff#\L	.	4eee'\	p
8a\	.	8cc#\	.	8ee\	p	.	.
8A\	.	8dd\	.	8ff#\	.	4eee'\	.
8a\	.	8cc#\	.	8ee\	.	.	.
8g#\	.	8dd\	.	8ff#\	.	4fff#'\	.
8a\J)	.	8cc#\J)	.	8ee\J)	.	.	.
=392	=392	=392	=392	=392	=392	=392	=392
(8g#\L	p	(8dd\L	p	(8ff#\L	p	4eee'\	p
8a\	.	8cc#\	.	8ee\	.	.	.
8A\	.	8dd\	.	8ff#\	.	4eee'\	.
8a\	.	8cc#\	.	8ee\	.	.	.
8g#\	.	8dd\	.	8ff#\	.	4fff#'\	.
8a\J)	.	8cc#\J)	.	8ee\J)	.	.	.
=393	=393	=393	=393	=393	=393	=393	=393
4a\	pp	4cc#\	pp	4ee\	pp	4eee\	pp
4r	.	4r	.	4r	.	4r	.
4r	.	4r	.	4r	.	4r	.
=394	=394	=394	=394	=394	=394	=394	=394
*clefF4	*clefF4	*	*	*	*	*	*
4FF#/	.	4F#/	.	2.r	.	4aaa\	.
4r	.	4r	.	.	.	4r	.
4r	.	4r	.	.	.	4r	.
=395	=395	=395	=395	=395	=395	=395	=395
[2.CCn/	.	[2.Cn/	.	4aa\	.	[2.a/	.
.	.	.	.	4r	.	.	.
.	.	.	.	4r	.	.	.
=396	=396	=396	=396	=396	=396	=396	=396
4CC/]	.	4C/]	.	4f#/	.	4a/]	.
(4CCn/	.	(4Cn/	.	4r	.	(4a/	.
4CC#/)	<	4C#/)	<	4r	.	4f#/)	<
=397	=397	=397	=397	=397	=397	=397	=397
4DD/	.	4D/	.	4d/	.	4d/	.
2DD#/	.	2D#/	.	2d#/	<	2d#/	.
=398	=398	=398	=398	=398	=398	=398	=398
4EE'/	f	4E'/	f	4e'/	f	4e'/	f
4E'\	.	4e'\	.	4ee'\	.	4ee'\	.
4r	.	4r	.	4r	.	4r	.
=399	=399	=399	=399	=399	=399	=399	=399
4AA'/	.	4A'/	.	4a'/	.	4a'/	.
4A'\	.	4a'\	.	4aa'\	.	4aa'\	.
4r	.	4r	.	4r	.	4r	.
=400	=400	=400	=400	=400	=400	=400	=400
4E'\	.	4e'\	.	4e'/	.	4ee'\	.
4e'\	.	4ee'\	.	4ee'\	.	4eee'\	.
4r	.	4r	.	4r	.	4r	.
=401	=401	=401	=401	=401	=401	=401	=401
4r	.	4r	.	4r	.	4r	.
4E\	.	4E/	.	4e/	.	4ee\	.
4e\	.	4B\ 4g#\	.	4ee\	.	4eee\	.
=402	=402	=402	=402	=402	=402	=402	=402
4A\	.	4c#\ 4a\	.	4cc#\	.	4ccc#\	.
4r	.	4E/	p	4e/	p	4r	.
4r	.	4e\	.	4ee\	.	4r	.
=403	=403	=403	=403	=403	=403	=403	=403
4r	.	4c#\	.	4cc#\	.	4r	.
4EE/	ff	4E/	ff	4e/	ff	4ee\	ff
4E\	.	4e\	.	4e\ 4b\ 4gg#\	.	4eee\	.
=404	=404	=404	=404	=404	=404	=404	=404
4AA/	.	4A/	.	4e\ 4cc#\ 4aa\	.	4a\ 4aa\	.
4r	.	4r	.	4r	.	4r	.
4r;	.	4r;	.	4r;	.	4r;	.
==	==	==	==	==	==	==	==
*-	*-	*-	*-	*-	*-	*-	*-
!!!ENC: Don Anthony
!!!END: 2006/08//
!!!ONB: Converted to Humdrum by Craig Sapp 2006/08/18/ from MusicXML
